;FLAVOR:Marlin
;TIME:2604
;Filament used: 1.9942m
;Layer height: 0.2
;MINX:70.985
;MINY:89.864
;MINZ:0.24
;MAXX:164.009
;MAXY:145.143
;MAXZ:4.49
;TARGET_MACHINE.NAME:Creality Ender-3
;Generated with Cura_SteamEngine 5.7.2
M140 S65
M105
M190 S65
M104 S205
M105
M109 S205
M82 ;absolute extrusion mode
; Ender 3 Custom Start G-code
G92 E0 ; Reset Extruder
G28 ; Home all axes
G1 Z2.0 F3000 ; Move Z Axis up little to prevent scratching of Heat Bed
G1 X0.1 Y20 Z0.3 F5000.0 ; Move to start position
G1 X0.1 Y200.0 Z0.3 F1500.0 E15 ; Draw the first line
G1 X0.4 Y200.0 Z0.3 F5000.0 ; Move to side a little
G1 X0.4 Y20 Z0.3 F1500.0 E30 ; Draw the second line
G92 E0 ; Reset Extruder
G1 Z2.0 F3000 ; Move Z Axis up little to prevent scratching of Heat Bed
G1 X5 Y20 Z0.3 F5000.0 ; Move over to prevent blob squish
G92 E0
G92 E0
G1 F2700 E-5
;LAYER_COUNT:17
;LAYER:-6
M107
G0 F9000 X79.376 Y104.371 Z0.24
;TYPE:SUPPORT-INTERFACE
G1 F2700 E0
G1 F1125 X80.134 Y103.812 E0.07518
G1 X81.068 Y103.19 E0.16476
G1 X81.423 Y102.974 E0.19793
G1 X82.544 Y102.341 E0.30069
G1 X82.562 Y102.347 E0.30221
G1 X83.596 Y101.861 E0.39341
G1 X84.002 Y101.688 E0.42863
G1 X85.106 Y101.274 E0.52275
G1 X85.319 Y101.203 E0.54068
G1 X86.575 Y100.844 E0.64495
G1 X87.607 Y100.617 E0.7293
G1 X88.921 Y100.408 E0.83551
G1 X89.609 Y100.261 E0.89166
G1 X90.268 Y100.026 E0.94751
G1 X90.846 Y99.737 E0.9991
G1 X91.396 Y99.369 E1.05192
G1 X91.924 Y98.914 E1.10756
G1 X92.38 Y98.404 E1.16217
G1 X92.829 Y97.78 E1.22354
G1 X93.43 Y97.01 E1.30151
G1 X93.623 Y96.786 E1.32511
G1 X94.449 Y95.886 E1.42262
G1 X94.753 Y95.586 E1.45671
G1 X95.427 Y94.962 E1.53003
G1 X96.128 Y94.387 E1.60241
G1 X96.456 Y94.14 E1.63518
G1 X97.26 Y93.571 E1.71381
G1 X98.227 Y92.987 E1.80398
G1 X99.112 Y92.538 E1.8832
G1 X100.051 Y92.129 E1.96495
G1 X100.996 Y91.776 E2.04548
G1 X102.399 Y91.38 E2.16185
G1 X102.782 Y91.292 E2.19322
G1 X103.959 Y91.072 E2.2888
G1 X104.724 Y90.988 E2.35023
G1 X105.024 Y90.964 E2.37426
G1 X106.423 Y90.929 E2.48596
G1 X106.862 Y90.94 E2.52102
G1 X107.734 Y90.996 E2.59077
G1 X107.903 Y90.997 E2.60426
G1 X108.969 Y91.147 E2.69019
G1 X109.804 Y91.312 E2.75813
G1 X110.116 Y91.384 E2.78369
G1 X111.646 Y91.818 E2.91064
G1 X111.905 Y91.911 E2.93261
G1 X113.326 Y92.483 E3.05488
G1 X114.535 Y93.062 E3.16189
G1 X114.537 Y93.074 E3.16286
G1 X114.893 Y93.262 E3.195
G1 X115.505 Y93.553 E3.24909
G1 X116.147 Y93.762 E3.30298
G1 X116.831 Y93.895 E3.35861
G1 X117.491 Y93.936 E3.41139
G1 X118.184 Y93.894 E3.46681
G1 X118.821 Y93.773 E3.51857
G1 X119.471 Y93.565 E3.57305
G1 X120.138 Y93.249 E3.63196
G1 X120.541 Y93.022 E3.66888
G1 X121.126 Y92.729 E3.72111
G1 X121.624 Y92.499 E3.7649
G1 X122.78 Y92.026 E3.8646
G1 X123.252 Y91.857 E3.90462
G1 X124.646 Y91.446 E4.02063
G1 X125.036 Y91.347 E4.05275
G1 X126.199 Y91.124 E4.14728
G1 X127.197 Y90.999 E4.22756
G1 X128.418 Y90.929 E4.32519
G1 X129.456 Y90.94 E4.40805
G1 X130.508 Y91.011 E4.49222
G1 X131.758 Y91.199 E4.59312
G1 X132.053 Y91.252 E4.61705
G1 X133.219 Y91.534 E4.7128
G1 X134.536 Y91.96 E4.8233
G1 X135.616 Y92.412 E4.91675
G1 X136.564 Y92.89 E5.0015
G1 X137.104 Y93.193 E5.05093
G1 X138.007 Y93.756 E5.13587
G1 X138.838 Y94.368 E5.21825
G1 X139.115 Y94.583 E5.24624
G1 X139.836 Y95.198 E5.32189
G1 X140.38 Y95.715 E5.3818
G1 X140.626 Y95.961 E5.40957
G1 X141.379 Y96.789 E5.49891
G1 X141.905 Y97.443 E5.5659
G1 X142.463 Y98.218 E5.64213
G1 X142.887 Y98.735 E5.69551
G1 X143.389 Y99.213 E5.75084
G1 X143.955 Y99.621 E5.80653
G1 X144.544 Y99.946 E5.86023
G1 X145.157 Y100.189 E5.91287
G1 X145.827 Y100.364 E5.96814
G1 X147.355 Y100.61 E6.09169
G1 X147.872 Y100.715 E6.1338
G1 X148.962 Y100.982 E6.22338
G1 X149.513 Y101.15 E6.26936
G1 X150.033 Y101.325 E6.31316
G1 X151.078 Y101.72 E6.40233
G1 X151.49 Y101.897 E6.43813
G1 X152.501 Y102.379 E6.52753
G1 X152.787 Y102.527 E6.55324
G1 X153.973 Y103.213 E6.66261
G1 X154.334 Y103.451 E6.69712
G1 X155.376 Y104.185 E6.79886
G1 X155.663 Y104.411 E6.82802
G1 X156.554 Y105.16 E6.92094
G1 X156.883 Y105.465 E6.95675
G1 X157.668 Y106.243 E7.04497
G1 X158.012 Y106.614 E7.08536
G1 X158.825 Y107.576 E7.1859
G1 X159.05 Y107.867 E7.21526
G1 X159.772 Y108.884 E7.31482
G1 X159.971 Y109.194 E7.34423
G1 X160.552 Y110.179 E7.43551
G1 X160.748 Y110.532 E7.46774
G1 X161.297 Y111.673 E7.56882
G1 X161.426 Y111.962 E7.59408
G1 X161.891 Y113.172 E7.69756
G1 X162.01 Y113.528 E7.72752
G1 X162.334 Y114.638 E7.81982
G1 X162.414 Y114.952 E7.84569
G1 X162.634 Y115.991 E7.93046
G1 X162.732 Y116.575 E7.97773
G1 X162.869 Y117.628 E8.0625
G1 X162.932 Y118.696 E8.1479
G1 X162.943 Y119.955 E8.2484
G1 X162.924 Y120.532 E8.29448
G1 X162.826 Y121.698 E8.38789
G1 X162.688 Y122.705 E8.46902
G1 X162.39 Y124.08 E8.58133
G1 X162.31 Y124.396 E8.60735
G1 X161.95 Y125.578 E8.70598
G1 X161.843 Y125.899 E8.73299
G1 X161.379 Y127.076 E8.83398
G1 X161.202 Y127.473 E8.86868
G1 X160.642 Y128.596 E8.96885
G1 X160.446 Y128.946 E9.00087
G1 X159.798 Y130.008 E9.10018
G1 X159.539 Y130.394 E9.13728
G1 X158.88 Y131.301 E9.22677
G1 X158.125 Y132.201 E9.32055
G1 X157.299 Y133.071 E9.41631
G1 X156.949 Y133.412 E9.45532
G1 X156.129 Y134.154 E9.54359
G1 X155.345 Y134.773 E9.62333
G1 X154.965 Y135.052 E9.66096
G1 X153.974 Y135.72 E9.75636
G1 X153.754 Y135.856 E9.777
G1 X152.693 Y136.465 E9.87466
G1 X151.549 Y137.016 E9.97602
G1 X151.306 Y137.122 E9.99718
G1 X150.248 Y137.539 E10.08796
G1 X149.257 Y137.866 E10.17126
G1 X148.97 Y137.95 E10.19513
G1 X147.995 Y138.197 E10.27542
G1 X146.847 Y138.424 E10.36883
G1 X145.613 Y138.581 E10.46813
G1 X144.43 Y138.66 E10.56277
G1 X143.483 Y138.68 E10.63838
G1 X142.245 Y138.781 E10.73753
G1 X141.381 Y138.899 E10.80714
G1 X140.958 Y138.978 E10.84149
G1 X140.034 Y139.179 E10.91697
G1 X138.991 Y139.484 E11.00371
G1 X136.643 Y140.271 E11.20139
G1 X135.709 Y140.566 E11.27958
G1 X134.076 Y141.059 E11.41574
G1 X132.015 Y141.633 E11.58652
G1 X130.075 Y142.139 E11.74656
G1 X128.136 Y142.597 E11.9056
G1 X125.927 Y143.072 E12.08596
G1 X124.718 Y143.31 E12.18432
G1 X122.751 Y143.657 E12.34376
G1 X121.747 Y143.809 E12.42482
G1 X120.66 Y143.925 E12.51208
G1 X120.002 Y143.985 E12.56482
G1 X118.567 Y144.06 E12.67952
G1 X117.752 Y144.076 E12.74459
G1 X117.153 Y144.076 E12.79241
G1 X116.43 Y144.06 E12.85014
G1 X114.998 Y143.985 E12.9646
G1 X114.127 Y143.906 E13.03441
G1 X112.897 Y143.755 E13.13333
G1 X112.299 Y143.668 E13.18157
G1 X111.057 Y143.454 E13.28217
G1 X108.859 Y143.027 E13.46091
G1 X108.037 Y142.857 E13.52791
G1 X106.142 Y142.431 E13.68295
G1 X104.913 Y142.135 E13.78386
G1 X102.968 Y141.633 E13.94421
G1 X101.092 Y141.107 E14.09974
G1 X99.582 Y140.657 E14.22551
G1 X97.978 Y140.147 E14.35986
G1 X97.669 Y140.003 E14.38708
G1 X97.63 Y140.036 E14.39115
G1 X96.048 Y139.5 E14.52449
G1 X95.511 Y139.334 E14.56935
G1 X94.759 Y139.133 E14.63149
G1 X94.219 Y139.013 E14.67565
G1 X93.345 Y138.861 E14.74646
G1 X92.451 Y138.749 E14.81838
G1 X91.56 Y138.688 E14.88967
G1 X90.669 Y138.664 E14.96082
G1 X89.555 Y138.601 E15.04989
G1 X89.049 Y138.543 E15.09054
G1 X87.774 Y138.354 E15.19343
G1 X87.59 Y138.289 E15.20901
G1 X87.374 Y138.28 E15.22626
G1 X85.92 Y137.917 E15.34589
G1 X85.674 Y137.846 E15.36633
G1 X84.168 Y137.318 E15.49372
G1 X83.782 Y137.157 E15.5271
G1 X82.582 Y136.601 E15.63268
G1 X82.084 Y136.338 E15.67763
G1 X80.805 Y135.58 E15.79631
G1 X80.408 Y135.318 E15.83428
G1 X79.631 Y134.758 E15.91073
G1 X79.352 Y134.545 E15.93875
G1 X78.825 Y134.116 E15.993
G1 X77.957 Y133.33 E16.08647
G1 X77.231 Y132.597 E16.16882
G1 X77.013 Y132.356 E16.19476
G1 X76.247 Y131.455 E16.28916
G1 X76.048 Y131.198 E16.31511
G1 X75.448 Y130.382 E16.39596
G1 X75.182 Y129.984 E16.43417
G1 X74.493 Y128.855 E16.53975
G1 X73.904 Y127.716 E16.64211
G1 X73.426 Y126.623 E16.73733
G1 X73.284 Y126.261 E16.76837
G1 X72.91 Y125.171 E16.86036
G1 X72.802 Y124.802 E16.89105
G1 X72.514 Y123.679 E16.9836
G1 X72.457 Y123.417 E17.005
G1 X72.271 Y122.39 E17.08831
G1 X72.221 Y122.057 E17.11519
G1 X72.096 Y120.85 E17.21206
G1 X72.052 Y119.848 E17.29212
G1 X72.049 Y119.55 E17.31591
G1 X72.068 Y118.525 E17.39774
G1 X72.187 Y117.128 E17.50966
G1 X72.179 Y117.119 E17.51062
G1 X72.37 Y115.954 E17.60486
G1 X72.42 Y115.7 E17.62552
G1 X72.688 Y114.542 E17.7204
G1 X73.15 Y113.042 E17.84569
G1 X73.621 Y111.855 E17.94763
G1 X73.755 Y111.555 E17.97385
G1 X74.322 Y110.411 E18.07577
G1 X74.617 Y109.883 E18.12405
G1 X75.324 Y108.741 E18.23127
G1 X75.427 Y108.633 E18.24318
G1 X75.529 Y108.442 E18.26046
G1 X76.359 Y107.341 E18.37053
G1 X77.146 Y106.441 E18.46596
G1 X77.355 Y106.216 E18.49048
G1 X78.193 Y105.394 E18.58418
G1 X78.505 Y105.104 E18.61818
G1 X79.376 Y104.371 E18.70905
G0 F9000 X79.723 Y104.613
G1 F1125 X118.759 Y143.649 E23.11577
G1 F2700 E18.11577
G0 F9000 X120.872 Y143.5
G1 F2700 E23.11577
G1 F1125 X81.053 Y103.68 E27.61094
G1 F2700 E22.61094
G0 F9000 X82.475 Y102.839
G1 F2700 E27.61094
G1 F1125 X122.865 Y143.23 E32.17057
G1 F2700 E27.17057
G0 F9000 X124.787 Y142.889
G1 F2700 E32.17057
G1 F1125 X84.016 Y102.118 E36.77315
G1 F2700 E31.77315
G0 F9000 X85.678 Y101.517
G1 F2700 E36.77315
G1 F1125 X126.665 Y142.504 E41.40012
G1 F2700 E36.40012
G0 F9000 X128.519 Y142.095
G1 F2700 E41.40012
G1 F1125 X87.478 Y101.055 E46.03313
G1 F2700 E41.03313
G0 F9000 X89.401 Y100.715
G1 F2700 E46.03313
G1 F1125 X130.342 Y141.656 E50.6549
G1 F2700 E45.6549
G0 F9000 X132.134 Y141.184
G1 F2700 E50.6549
G1 F1125 X91.036 Y100.087 E55.29434
G1 F2700 E50.29434
G0 F9000 X92.301 Y99.09
G1 F2700 E55.29434
G1 F1125 X133.903 Y140.691 E59.99068
G1 F2700 E54.99068
G0 F9000 X135.641 Y140.166
G1 F2700 E59.99068
G1 F1125 X93.3 Y97.825 E64.77049
G1 F2700 E59.77049
G0 F9000 X94.337 Y96.599
G1 F2700 E64.77049
G1 F1125 X137.349 Y139.612 E69.62612
G1 F2700 E64.62612
G0 F9000 X139.05 Y139.05
G1 F2700 E69.62612
G1 F1125 X95.469 Y95.469 E74.54592
G1 F2700 E69.54592
G0 F9000 X96.712 Y94.45
G1 F2700 E74.54592
G1 F1125 X140.854 Y138.591 E79.52899
G1 F2700 E74.52899
G0 F9000 X142.855 Y138.329
G1 F2700 E79.52899
G1 F1125 X98.073 Y93.547 E84.58437
G1 F2700 E79.58437
G0 F9000 X99.566 Y92.777
G1 F2700 E84.58437
G1 F1125 X145.009 Y138.22 E89.71437
G1 F2700 E84.71437
G0 F9000 X147.03 Y137.979
G1 F2700 E89.71437
G1 F1125 X101.188 Y92.137 E94.88941
G1 F2700 E89.88941
G0 F9000 X102.977 Y91.664
G1 F2700 E94.88941
G1 F1125 X148.874 Y137.561 E100.07066
G1 F2700 E95.07066
G0 F9000 X150.562 Y136.986
G1 F2700 E100.07066
G1 F1125 X104.943 Y91.367 E105.22053
G1 F2700 E100.22053
G0 F9000 X107.202 Y91.362
G1 F2700 E105.22053
G1 F1125 X152.13 Y136.291 E110.29244
G1 F2700 E105.29244
G0 F9000 X153.59 Y135.488
G1 F2700 E110.29244
G1 F1125 X109.831 Y91.729 E115.23234
G1 F2700 E110.23234
G0 F9000 X113.258 Y92.893
G1 F2700 E115.23234
G1 F1125 X154.939 Y134.574 E119.93765
G1 F2700 E114.93765
G0 F9000 X156.188 Y133.56
G1 F2700 E119.93765
G1 F1125 X116.929 Y94.301 E124.36955
G1 F2700 E119.36955
G0 F9000 X119.019 Y94.129
G1 F2700 E124.36955
G1 F1125 X157.339 Y132.449 E128.69544
G1 F2700 E123.69544
G0 F9000 X158.403 Y131.25
G1 F2700 E128.69544
G1 F1125 X120.601 Y93.448 E132.96285
G1 F2700 E127.96285
G0 F9000 X122.137 Y92.721
G1 F2700 E132.96285
G1 F1125 X159.36 Y129.944 E137.16491
G1 F2700 E132.16491
G0 F9000 X160.217 Y128.539
G1 F2700 E137.16491
G1 F1125 X123.792 Y92.114 E141.27688
G1 F2700 E136.27688
G0 F9000 X125.59 Y91.649
G1 F2700 E141.27688
G1 F1125 X160.965 Y127.024 E145.27031
G1 F2700 E140.27031
G0 F9000 X161.591 Y125.387
G1 F2700 E145.27031
G1 F1125 X127.582 Y91.378 E149.10954
G1 F2700 E144.10954
G0 F9000 X129.833 Y91.367
G1 F2700 E149.10954
G1 F1125 X162.082 Y123.616 E152.75009
G1 F2700 E147.75009
G0 F9000 X162.423 Y121.694
G1 F2700 E152.75009
G1 F1125 X132.503 Y91.773 E156.12777
G1 F2700 E151.12777
G0 F9000 X136.092 Y93.1
G1 F2700 E156.12777
G1 F1125 X162.54 Y119.548 E159.11345
G1 F2700 E154.11345
G0 F9000 X162.403 Y117.149
G1 F2700 E159.11345
G1 F1125 X146.061 Y100.807 E160.95828
G1 F2700 E155.95828
G0 F9000 X148.899 Y101.381
G1 F2700 E160.95828
G1 F1125 X161.819 Y114.302 E162.41686
G1 F2700 E157.41686
G0 F9000 X160.264 Y110.483
G1 F2700 E162.41686
G1 F1125 X152.746 Y102.966 E163.2655
G1 F2700 E158.2655
G0 F9000 X153.303 Y101.595
G0 X154.946 Y102.578
G0 X156.303 Y103.559
G0 X157.741 Y104.782
G0 X159.575 Y106.812
G0 X160.903 Y108.677
G0 X161.748 Y110.154
G0 X162.425 Y111.616
G0 X163.023 Y113.201
G0 X163.461 Y114.75
G0 X163.885 Y117.168
G0 X164 Y118.683
G0 X163.98 Y120.681
G0 X163.754 Y122.737
G0 X163.551 Y123.871
G0 X162.787 Y126.421
G0 X162.119 Y128.004
G0 X161.371 Y129.481
G0 X160.408 Y131.016
G0 X159.058 Y132.76
G0 X157.565 Y134.299
G0 X155.964 Y135.643
G0 X154.18 Y136.845
G0 X152.658 Y137.66
G0 X150.736 Y138.495
G0 X148.375 Y139.203
G0 X126.245 Y144.097
G0 X122.022 Y144.845
G0 X119.561 Y145.072
G0 X116.48 Y145.129
G0 X116.509 Y143.661
G1 F2700 E163.2655
G1 F1125 X78.502 Y105.654 E167.55605
G1 F2700 E162.55605
G0 F9000 X77.373 Y106.789
G1 F2700 E167.55605
G1 F1125 X114.081 Y143.497 E171.69997
G1 F2700 E166.69997
G0 F9000 X111.434 Y143.113
G1 F2700 E171.69997
G1 F1125 X76.345 Y108.023 E175.66118
G1 F2700 E170.66118
G0 F9000 X75.414 Y109.355
G1 F2700 E175.66118
G1 F1125 X108.629 Y142.57 E179.41077
G1 F2700 E174.41077
G0 F9000 X105.719 Y141.923
G1 F2700 E179.41077
G1 F1125 X74.582 Y110.786 E182.92579
G1 F2700 E177.92579
G0 F9000 X73.863 Y112.33
G1 F2700 E182.92579
G1 F1125 X102.667 Y141.134 E186.17743
G1 F2700 E181.17743
G0 F9000 X99.474 Y140.203
G1 F2700 E186.17743
G1 F1125 X73.272 Y114.001 E189.13534
G1 F2700 E184.13534
G0 F9000 X72.807 Y115.799
G1 F2700 E189.13534
G1 F1125 X96.108 Y139.1 E191.76576
G1 F2700 E186.76576
G0 F9000 X93.183 Y138.438
G1 F2700 E191.76576
G1 F1125 X72.532 Y117.787 E194.09702
G1 F2700 E189.09702
G0 F9000 X72.458 Y119.976
G1 F2700 E194.09702
G1 F1125 X90.748 Y138.266 E196.16175
G1 F2700 E191.16175
G0 F9000 X88.238 Y138.018
G1 F2700 E196.16175
G1 F1125 X72.692 Y122.472 E197.91672
G1 F2700 E192.91672
G0 F9000 X73.439 Y125.482
G1 F2700 E197.91672
G1 F1125 X85.22 Y137.263 E199.24666
G1 F2700 E194.24666
G0 F9000 X83.957 Y138.377
G0 X82.016 Y137.478
G0 X80.354 Y136.556
G0 X80.776 Y135.081
G1 F2700 E199.24666
G1 F1125 X75.633 Y129.939 E199.82719
G1 F2700 E194.82719
G0 F300 X75.633 Y129.939 Z0.54
G0 F9000 X74.271 Y130.535
G0 X73.123 Y128.54
G0 X72.399 Y126.942
G0 X71.769 Y125.054
G0 X71.394 Y123.52
G0 X71.069 Y121.457
G0 X70.985 Y119.474
G0 X71.066 Y117.85
G0 X71.329 Y115.748
G0 X71.762 Y113.874
G0 X72.569 Y111.651
G0 X73.358 Y109.963
G0 X74.696 Y110.566
;TIME_ELAPSED:162.981075
;LAYER:-5
;TYPE:SUPPORT
G1 F2700 E199.82719
G1 F1125 X82.343 Y102.919 E200.90627
G0 F9000 X81.628 Y103.318
G1 F1125 X81.3 Y103.518 E200.9446
G1 X80.439 Y104.089 E201.04769
G1 X79.627 Y104.685 E201.14819
G1 X78.772 Y105.407 E201.25985
G1 X78.463 Y105.687 E201.30146
G1 X77.633 Y106.508 E201.41795
G1 X77.438 Y106.715 E201.44632
G1 X77.161 Y107.033 E201.4884
G1 X77.303 Y107.175 E201.50844
G1 X76.623 Y107.659 E201.59172
G1 X76.075 Y108.386 E201.68256
G1 X76.205 Y108.515 E201.70084
G1 X75.745 Y108.909 E201.76127
G1 X75.562 Y109.277 E201.80228
G1 X75.454 Y109.296 E201.81322
G1 X74.964 Y110.085 E201.90589
G1 X74.715 Y110.527 E201.95651
G1 X74.112 Y111.74 E202.09168
G1 X73.956 Y112.096 E202.13046
G1 X73.555 Y113.122 E202.24038
G1 X84.897 Y101.78 E203.84086
G1 X85.452 Y101.586 E203.89952
G1 X86.616 Y101.25 E204.02041
G1 X86.84 Y101.25 E204.04276
G1 X73.084 Y115.006 E205.98388
G1 X73.084 Y115.33 E206.01621
G1 X72.918 Y115.33 E206.03277
G1 X72.779 Y115.962 E206.09734
G1 X72.779 Y116.695 E206.17048
G1 X72.66 Y116.695 E206.18235
G1 X72.635 Y116.869 E206.19989
G1 X88.482 Y101.023 E208.436
G1 X88.698 Y101.046 E208.45768
