;FLAVOR:Marlin
;TIME:800
;Filament used: 0.479269m
;Layer height: 0.2
;MINX:91.525
;MINY:111.229
;MINZ:0.4
;MAXX:143.472
;MAXY:123.776
;MAXZ:5.4
;TARGET_MACHINE.NAME:Creality Ender-3
;Generated with Cura_SteamEngine 5.7.2
M140 S65
M105
M190 S65
M104 S215
M105
M109 S215
M82 ;absolute extrusion mode
; Ender 3 Custom Start G-code
G92 E0 ; Reset Extruder
G28 ; Home all axes
G1 Z2.0 F3000 ; Move Z Axis up little to prevent scratching of Heat Bed
G1 X0.1 Y20 Z0.3 F5000.0 ; Move to start position
G1 X0.1 Y200.0 Z0.3 F1500.0 E15 ; Draw the first line
G1 X0.4 Y200.0 Z0.3 F5000.0 ; Move to side a little
G1 X0.4 Y20 Z0.3 F1500.0 E30 ; Draw the second line
G92 E0 ; Reset Extruder
G1 Z2.0 F3000 ; Move Z Axis up little to prevent scratching of Heat Bed
G1 X5 Y20 Z0.3 F5000.0 ; Move over to prevent blob squish
G92 E0
G92 E0
G1 F2700 E-5
;LAYER_COUNT:26
;LAYER:0
M107
;MESH:lever.stl
G0 F6000 X98.577 Y121.547 Z0.4
;TYPE:WALL-INNER
G1 F2700 E0
G1 F1200 X98.007 Y121.62 E0.03823
G1 X97.448 Y121.615 E0.07541
G1 X96.915 Y121.538 E0.11124
G1 X96.391 Y121.389 E0.14747
G1 X95.856 Y121.158 E0.18624
G1 X95.367 Y120.859 E0.22437
G1 X94.944 Y120.517 E0.26055
G1 X94.574 Y120.123 E0.2965
G1 X94.208 Y119.599 E0.33902
G1 X93.969 Y119.14 E0.37345
G1 X93.764 Y118.556 E0.41462
G1 X93.655 Y118.025 E0.45068
G1 X93.62 Y117.487 E0.48654
G1 X93.654 Y116.94 E0.523
G1 X93.764 Y116.396 E0.55992
G1 X93.962 Y115.827 E0.59999
G1 X94.213 Y115.344 E0.6362
G1 X94.557 Y114.852 E0.67613
G1 X94.937 Y114.446 E0.71313
G1 X95.409 Y114.068 E0.75335
G1 X95.874 Y113.785 E0.78956
G1 X96.376 Y113.568 E0.82594
G1 X96.958 Y113.406 E0.86613
G1 X97.502 Y113.336 E0.90261
G1 X98.045 Y113.336 E0.93873
G1 X98.655 Y113.421 E0.9797
G1 X99.199 Y113.58 E1.0174
G1 X99.673 Y113.786 E1.05178
G1 X100.142 Y114.072 E1.08832
G1 X100.609 Y114.448 E1.12821
G1 X100.989 Y114.855 E1.16525
G1 X101.301 Y115.294 E1.20107
G1 X101.561 Y115.788 E1.23821
G1 X101.754 Y116.31 E1.27523
G1 X101.876 Y116.874 E1.31361
G1 X101.919 Y117.436 E1.35111
G1 X101.876 Y118.079 E1.39398
G1 X101.754 Y118.637 E1.43197
G1 X101.561 Y119.165 E1.46937
G1 X101.291 Y119.673 E1.50764
G1 X100.964 Y120.129 E1.54496
G1 X100.574 Y120.539 E1.5826
G1 X100.131 Y120.89 E1.6202
G1 X99.643 Y121.179 E1.65793
G1 X99.123 Y121.398 E1.69546
G1 X98.577 Y121.547 E1.73311
G1 F2700 E-3.26689
G0 F6000 X98.033 Y121.721
G0 X99.172 Y121.572
G0 X99.172 Y123.176
G0 X106.172 Y123.276
G1 F2700 E1.73311
G1 F793.4 X116.493 Y123.271 E2.77152
G1 F950.5 X117.072 Y123.376 E2.82094
G1 F1200 X140.386 Y123.376 E4.3718
G1 X140.807 Y123.344 E4.39988
G1 X141.159 Y123.27 E4.42381
G1 X141.526 Y123.132 E4.44989
G1 X141.855 Y122.953 E4.47481
G1 X142.148 Y122.734 E4.49914
G1 X142.424 Y122.455 E4.52524
G1 X142.646 Y122.157 E4.54996
G1 X142.829 Y121.827 E4.57506
G1 X142.966 Y121.463 E4.60094
G1 X143.04 Y121.111 E4.62486
G1 X143.072 Y120.693 E4.65275
G1 X143.072 Y116.576 E4.92661
G1 X117.072 Y116.576 E6.65614
G1 F960 X116.372 Y116.676 E6.71494
G1 X116.852 Y117.016 E6.76385
G1 F1200 X116.972 Y117.376 E6.78909
G1 X116.972 Y122.576 E7.135
G1 X116.852 Y122.936 E7.16024
G1 F950.5 X116.493 Y123.271 E7.20148
G0 F6000 X117.243 Y123.276
G0 X116.779 Y123.186
G0 X116.801 Y116.95
G0 X116.372 Y116.676
G1 F793.4 X106.051 Y116.681 E8.23989
G0 F6000 X105.745 Y116.95
G0 X105.745 Y123.006
G0 X106.172 Y123.276
G1 F960 X105.692 Y122.936 E8.2888
G1 F1200 X105.572 Y122.576 E8.31404
G1 X105.572 Y117.376 E8.65995
G1 X105.692 Y117.016 E8.68519
G1 F950.5 X106.051 Y116.681 E8.72643
G1 X105.472 Y116.576 E8.77585
G1 F1200 X103.962 Y116.571 E8.87629
G1 X103.757 Y116.504 E8.89064
G1 X103.563 Y116.336 E8.90771
G1 X103.467 Y116.145 E8.92193
G1 X103.297 Y115.558 E8.96258
G1 X103.064 Y114.987 E9.00361
G1 X102.773 Y114.443 E9.04465
G1 X102.452 Y113.97 E9.08267
G1 X102.051 Y113.49 E9.12428
G1 X101.635 Y113.088 E9.16276
G1 X101.158 Y112.706 E9.20341
G1 X100.656 Y112.388 E9.24294
G1 X100.126 Y112.123 E9.28236
G1 X99.568 Y111.909 E9.32211
G1 X98.984 Y111.756 E9.36227
G1 X98.395 Y111.662 E9.40195
G1 X97.793 Y111.63 E9.44205
G1 X97.188 Y111.658 E9.48234
G1 X96.609 Y111.745 E9.52128
G1 X96.02 Y111.898 E9.56177
G1 X95.457 Y112.105 E9.60167
G1 X94.929 Y112.365 E9.64082
G1 X94.414 Y112.688 E9.68126
G1 X93.939 Y113.062 E9.72147
G1 X93.518 Y113.464 E9.76019
G1 X93.114 Y113.941 E9.80177
G1 X92.788 Y114.415 E9.84004
G1 X92.494 Y114.954 E9.88088
G1 X92.266 Y115.496 E9.92
G1 X92.092 Y116.075 E9.96022
G1 X91.979 Y116.669 E10.00044
G1 X91.926 Y117.247 E10.03905
G1 X91.936 Y117.852 E10.0793
G1 X92.005 Y118.456 E10.11974
G1 X92.131 Y119.024 E10.15844
G1 X92.328 Y119.617 E10.20001
G1 X92.563 Y120.137 E10.23796
G1 X92.88 Y120.684 E10.28002
G1 X93.219 Y121.149 E10.3183
G1 X93.626 Y121.6 E10.35871
G1 X94.065 Y121.999 E10.39817
G1 X94.553 Y122.36 E10.43855
G1 X95.063 Y122.662 E10.47798
G1 X95.617 Y122.912 E10.51841
G1 X96.172 Y123.102 E10.55743
G1 X96.762 Y123.235 E10.59766
G1 X97.956 Y123.376 E10.67764
G1 X105.472 Y123.376 E11.17761
G1 F960 X106.172 Y123.276 E11.2364
G1 F2700 E6.2364
G0 F6000 X98.561 Y123.176
G0 X98.366 Y121.778
G0 X98.521 Y121.151
;TYPE:WALL-OUTER
G1 F2700 E11.2364
G1 F1200 X98.04 Y121.218 E11.26871
G1 X97.504 Y121.219 E11.30436
G1 X97.003 Y121.148 E11.33802
G1 X96.519 Y121.01 E11.3715
G1 X96.045 Y120.805 E11.40585
G1 X95.62 Y120.548 E11.43889
G1 X95.213 Y120.221 E11.47362
G1 X94.862 Y119.844 E11.50789
G1 X94.562 Y119.413 E11.54282
G1 X94.333 Y118.975 E11.57569
G1 X94.156 Y118.474 E11.61104
G1 X94.052 Y117.97 E11.64527
G1 X94.02 Y117.48 E11.67794
G1 X94.052 Y116.977 E11.71146
G1 X94.163 Y116.452 E11.74716
G1 X94.331 Y115.982 E11.78036
G1 X94.57 Y115.525 E11.81467
G1 X94.869 Y115.103 E11.84907
G1 X95.213 Y114.735 E11.88258
G1 X95.619 Y114.409 E11.91722
G1 X96.051 Y114.144 E11.95093
G1 X96.514 Y113.944 E11.98448
G1 X97.01 Y113.803 E12.01878
G1 X97.505 Y113.737 E12.052
G1 X98.039 Y113.737 E12.08752
G1 X98.536 Y113.804 E12.12088
G1 X99.04 Y113.948 E12.15575
G1 X99.494 Y114.144 E12.18864
G1 X99.928 Y114.41 E12.2225
G1 X100.339 Y114.743 E12.25769
G1 X100.682 Y115.111 E12.29115
G1 X100.976 Y115.528 E12.32509
G1 X101.217 Y115.996 E12.36011
G1 X101.38 Y116.455 E12.39251
G1 X101.488 Y116.982 E12.4283
G1 X101.52 Y117.49 E12.46216
G1 X101.488 Y117.97 E12.49416
G1 X101.377 Y118.503 E12.53037
G1 X101.206 Y118.981 E12.56414
G1 X100.982 Y119.413 E12.59651
G1 X100.671 Y119.857 E12.63257
G1 X100.343 Y120.209 E12.66458
G1 X99.924 Y120.548 E12.70043
G1 X99.508 Y120.8 E12.73278
G1 X99.015 Y121.013 E12.76851
G1 X98.521 Y121.151 E12.80263
G1 F2700 E7.80263
G0 F6000 X98.561 Y121.45
G0 X98.061 Y121.802
G0 X98.061 Y123.176
G0 X97.932 Y123.776
G1 F2700 E12.80263
G1 F1200 X140.4 Y123.776 E15.62761
G1 X140.863 Y123.741 E15.6585
G1 X141.271 Y123.655 E15.68623
G1 X141.692 Y123.497 E15.71615
G1 X142.071 Y123.291 E15.74484
G1 X142.412 Y123.036 E15.77316
G1 X142.728 Y122.717 E15.80303
G1 X142.983 Y122.375 E15.83141
G1 X143.193 Y121.995 E15.86029
G1 X143.351 Y121.575 E15.89014
G1 X143.437 Y121.167 E15.91788
G1 X143.472 Y120.708 E15.9485
G1 X143.472 Y116.176 E16.24997
G1 X104.016 Y116.175 E18.87459
G1 X103.865 Y116.08 E18.88646
G1 X103.675 Y115.426 E18.93176
G1 X103.426 Y114.817 E18.97553
G1 X103.116 Y114.236 E19.01934
G1 X102.772 Y113.729 E19.06009
G1 X102.345 Y113.217 E19.10444
G1 X101.899 Y112.787 E19.14565
G1 X101.391 Y112.38 E19.18895
G1 X100.853 Y112.039 E19.23132
G1 X100.287 Y111.756 E19.27342
G1 X99.69 Y111.527 E19.31595
G1 X99.066 Y111.364 E19.35885
G1 X98.438 Y111.264 E19.40115
G1 X97.795 Y111.229 E19.44399
G1 X97.148 Y111.26 E19.48708
G1 X96.529 Y111.353 E19.52872
G1 X95.9 Y111.516 E19.57194
G1 X95.299 Y111.737 E19.61453
G1 X94.734 Y112.015 E19.65642
G1 X94.184 Y112.36 E19.69961
G1 X93.676 Y112.76 E19.74262
G1 X93.226 Y113.19 E19.78402
G1 X92.796 Y113.698 E19.8283
G1 X92.447 Y114.205 E19.86924
G1 X92.133 Y114.78 E19.91282
G1 X91.889 Y115.36 E19.95468
G1 X91.703 Y115.98 E19.99774
G1 X91.583 Y116.613 E20.04059
G1 X91.525 Y117.232 E20.08195
G1 X91.536 Y117.878 E20.12493
G1 X91.61 Y118.522 E20.16805
G1 X91.745 Y119.13 E20.20948
G1 X91.955 Y119.763 E20.25384
G1 X92.207 Y120.32 E20.29451
G1 X92.544 Y120.902 E20.33925
G1 X92.908 Y121.401 E20.38033
G1 X93.342 Y121.882 E20.42343
G1 X93.811 Y122.309 E20.46562
G1 X94.331 Y122.693 E20.50862
G1 X94.877 Y123.018 E20.55089
G1 X95.47 Y123.285 E20.59415
G1 X96.063 Y123.487 E20.63582
G1 X96.694 Y123.63 E20.67886
G1 X97.932 Y123.776 E20.76178
G1 F2700 E15.76178
G0 F6000 X97.944 Y123.477
G0 X116.407 Y123.078
G0 X116.407 Y122.774
G1 F2700 E20.76178
G1 F1200 X106.172 Y122.776 E21.44262
G1 X106.012 Y122.696 E21.45452
G1 X105.972 Y122.576 E21.46293
G1 X105.972 Y117.376 E21.80884
G1 X106.012 Y117.256 E21.81725
G1 X106.137 Y117.178 E21.82705
G1 X116.372 Y117.176 E22.50789
G1 X116.532 Y117.256 E22.51979
G1 X116.572 Y117.376 E22.5282
G1 X116.572 Y122.576 E22.87411
G1 X116.532 Y122.696 E22.88252
G1 X116.407 Y122.774 E22.89232
G0 F6000 X117.194 Y123.016
;TYPE:SKIN
G1 F1200 X117.332 Y122.602 E22.92135
G1 X117.332 Y117.346 E23.27098
G1 X117.195 Y116.937 E23.29967
G1 X142.712 Y116.936 E24.99707
G1 X142.712 Y120.668 E25.24532
G1 X142.681 Y121.063 E25.27168
G1 X142.619 Y121.363 E25.29206
G1 X142.502 Y121.671 E25.31398
G1 X142.343 Y121.959 E25.33586
G1 X142.152 Y122.216 E25.35716
G1 X141.908 Y122.46 E25.38011
G1 X141.659 Y122.647 E25.40083
G1 X141.368 Y122.805 E25.42285
G1 X141.063 Y122.919 E25.44451
G1 X140.759 Y122.985 E25.46521
G1 X140.356 Y123.016 E25.49209
G1 X117.194 Y123.016 E27.03284
G0 F6000 X117.52 Y122.612
G1 F1200 X117.725 Y122.816 E27.05207
G0 F6000 X118.29 Y122.816
G1 F1200 X117.532 Y122.057 E27.12343
G0 F6000 X117.532 Y121.492
G1 F1200 X118.856 Y122.816 E27.24798
G0 F6000 X119.422 Y122.816
G1 F1200 X117.532 Y120.926 E27.42578
G0 F6000 X117.532 Y120.36
G1 F1200 X119.988 Y122.816 E27.65683
G0 F6000 X120.553 Y122.816
G1 F1200 X117.532 Y119.794 E27.94107
G0 F6000 X117.532 Y119.229
G1 F1200 X121.119 Y122.816 E28.27852
G0 F6000 X121.685 Y122.816
G1 F1200 X117.532 Y118.663 E28.6692
G0 F6000 X117.532 Y118.097
G1 F1200 X122.25 Y122.816 E29.11309
G0 F6000 X122.816 Y122.816
G1 F1200 X117.532 Y117.532 E29.61018
G0 F6000 X117.702 Y117.136
G1 F1200 X123.382 Y122.816 E30.14452
G0 F6000 X123.947 Y122.816
G1 F1200 X118.268 Y117.136 E30.67881
G0 F6000 X118.834 Y117.136
G1 F1200 X124.513 Y122.816 E31.2131
G0 F6000 X125.079 Y122.816
G1 F1200 X119.399 Y117.136 E31.74744
G0 F6000 X119.965 Y117.136
G1 F1200 X125.644 Y122.816 E32.28173
G0 F6000 X126.21 Y122.816
G1 F1200 X120.531 Y117.136 E32.81603
G0 F6000 X121.096 Y117.136
G1 F1200 X126.776 Y122.816 E33.35037
G0 F6000 X127.341 Y122.816
G1 F1200 X121.662 Y117.136 E33.88466
G0 F6000 X122.228 Y117.136
G1 F1200 X127.907 Y122.816 E34.41895
G0 F6000 X128.473 Y122.816
G1 F1200 X122.793 Y117.136 E34.95329
G0 F6000 X123.359 Y117.136
G1 F1200 X129.039 Y122.816 E35.48763
G0 F6000 X129.604 Y122.816
G1 F1200 X123.925 Y117.136 E36.02192
G0 F6000 X124.49 Y117.136
G1 F1200 X130.17 Y122.816 E36.55626
G0 F6000 X130.736 Y122.816
G1 F1200 X125.056 Y117.136 E37.0906
G0 F6000 X125.622 Y117.136
G1 F1200 X131.301 Y122.816 E37.6249
G0 F6000 X131.867 Y122.816
G1 F1200 X126.187 Y117.136 E38.15923
G0 F6000 X126.753 Y117.136
G1 F1200 X132.433 Y122.816 E38.69357
G0 F6000 X132.998 Y122.816
G1 F1200 X127.319 Y117.136 E39.22787
G0 F6000 X127.885 Y117.136
G1 F1200 X133.564 Y122.816 E39.76216
G0 F6000 X134.13 Y122.816
G1 F1200 X128.45 Y117.136 E40.2965
G0 F6000 X129.016 Y117.136
G1 F1200 X134.695 Y122.816 E40.83079
G0 F6000 X135.261 Y122.816
G1 F1200 X129.582 Y117.136 E41.36508
G0 F6000 X130.147 Y117.136
G1 F1200 X135.827 Y122.816 E41.89942
G0 F6000 X136.392 Y122.816
G1 F1200 X130.713 Y117.136 E42.43372
G0 F6000 X131.279 Y117.136
G1 F1200 X136.958 Y122.816 E42.96801
G0 F6000 X137.524 Y122.816
G1 F1200 X131.844 Y117.136 E43.50235
G0 F6000 X132.41 Y117.136
G1 F1200 X138.089 Y122.816 E44.03664
G0 F6000 X138.655 Y122.816
G1 F1200 X132.976 Y117.136 E44.57093
G0 F6000 X133.541 Y117.136
G1 F1200 X139.221 Y122.816 E45.10527
G0 F6000 X139.787 Y122.816
G1 F1200 X134.107 Y117.136 E45.63961
G0 F6000 X134.673 Y117.136
G1 F1200 X140.352 Y122.815 E46.17386
G0 F6000 X140.861 Y122.759
G1 F1200 X135.238 Y117.136 E46.70284
G0 F6000 X135.804 Y117.136
G1 F1200 X141.288 Y122.621 E47.21878
G0 F6000 X141.643 Y122.409
G1 F1200 X136.37 Y117.136 E47.71484
G0 F6000 X136.935 Y117.136
G1 F1200 X141.942 Y122.144 E48.18591
G0 F6000 X142.189 Y121.825
G1 F1200 X137.501 Y117.136 E48.62698
G0 F6000 X138.067 Y117.136
G1 F1200 X142.374 Y121.443 E49.03215
G0 F6000 X142.486 Y120.99
G1 F1200 X138.633 Y117.136 E49.39467
G0 F6000 X139.198 Y117.136
G1 F1200 X142.512 Y120.451 E49.70647
G0 F6000 X142.512 Y119.885
G1 F1200 X139.764 Y117.136 E49.96504
G0 F6000 X140.33 Y117.136
G1 F1200 X142.512 Y119.319 E50.17035
G0 F6000 X142.512 Y118.754
G1 F1200 X140.895 Y117.136 E50.32252
G0 F6000 X141.461 Y117.136
G1 F1200 X142.512 Y118.188 E50.42143
G0 F6000 X142.512 Y117.622
G1 F1200 X142.027 Y117.136 E50.46711
G1 F2700 E45.46711
G0 F6000 X142.027 Y116.676
G0 X116.734 Y116.767
G0 X117.133 Y117.382
G0 X116.801 Y123.006
G0 X105.745 Y123.006
G0 X105.733 Y121.672
G0 X105.372 Y121.721
G0 X99.172 Y121.572
G0 X98.632 Y121.903
G1 F2700 E50.46711
G1 F1200 X99.238 Y121.737 E50.5089
G1 X99.83 Y121.489 E50.5516
G1 X100.336 Y121.182 E50.59097
G1 X100.836 Y120.79 E50.63323
G1 X101.227 Y120.373 E50.67126
G1 X101.579 Y119.885 E50.71128
G1 X101.905 Y119.283 E50.75682
G1 X102.122 Y118.653 E50.80115
G1 X102.244 Y118.073 E50.84057
G1 X102.276 Y117.545 E50.87576
G1 X102.24 Y116.876 E50.92033
G1 X102.112 Y116.254 E50.96257
G1 X101.933 Y115.739 E50.99884
G1 X101.606 Y115.107 E51.04617
G1 X101.263 Y114.62 E51.0858
G1 X100.863 Y114.191 E51.12481
G1 X100.354 Y113.78 E51.16833
G1 X99.833 Y113.46 E51.20901
G1 X99.3 Y113.232 E51.24757
G1 X98.739 Y113.069 E51.28643
G1 X98.076 Y112.977 E51.33096
G1 X97.482 Y112.976 E51.37047
G1 X96.895 Y113.048 E51.40981
G1 X96.243 Y113.232 E51.45487
G1 X95.694 Y113.469 E51.49465
G1 X95.128 Y113.822 E51.53902
G1 X94.677 Y114.191 E51.57779
G1 X94.283 Y114.614 E51.61624
G1 X93.953 Y115.07 E51.65368
G1 X93.631 Y115.682 E51.69968
G1 X93.435 Y116.233 E51.73859
G1 X93.304 Y116.834 E51.7795
G1 X93.26 Y117.482 E51.82271
G1 X93.293 Y118.065 E51.86155
G1 X93.417 Y118.668 E51.9025
G1 X93.635 Y119.276 E51.94547
G1 X93.902 Y119.789 E51.98394
G1 X94.246 Y120.293 E52.02453
G1 X94.709 Y120.792 E52.06981
G1 X95.137 Y121.14 E52.10651
G1 X95.745 Y121.503 E52.15361
G1 X96.284 Y121.733 E52.19259
G1 X96.824 Y121.888 E52.22996
G1 X97.399 Y121.97 E52.2686
G1 X98.08 Y121.979 E52.3139
G1 X98.632 Y121.903 E52.35097
G1 F2700 E47.35097
G0 F6000 X98.033 Y121.721
G0 X99.172 Y121.572
G0 X99.172 Y123.176
G0 X105.35 Y123.016
G1 F2700 E52.35097
G1 F1200 X97.98 Y123.016 E52.84122
G1 X96.818 Y122.878 E52.91906
G1 X96.267 Y122.755 E52.95662
G1 X95.743 Y122.574 E52.9935
G1 X95.233 Y122.342 E53.03077
G1 X94.755 Y122.056 E53.06782
G1 X94.287 Y121.716 E53.1063
G1 X93.887 Y121.351 E53.14232
G1 X93.496 Y120.913 E53.18138
G1 X93.184 Y120.49 E53.21634
G1 X92.874 Y119.956 E53.25741
G1 X92.667 Y119.499 E53.29079
G1 X92.474 Y118.911 E53.33195
G1 X92.362 Y118.402 E53.36662
G1 X92.292 Y117.826 E53.40522
G1 X92.284 Y117.249 E53.44361
G1 X92.334 Y116.725 E53.47862
G1 X92.443 Y116.156 E53.51716
G1 X92.605 Y115.616 E53.55466
G1 X92.817 Y115.115 E53.59085
G1 X93.1 Y114.597 E53.63011
G1 X93.388 Y114.17 E53.66438
G1 X93.786 Y113.702 E53.70524
G1 X94.16 Y113.344 E53.73968
G1 X94.619 Y112.984 E53.77849
G1 X95.11 Y112.675 E53.81708
G1 X95.595 Y112.436 E53.85304
G1 X96.146 Y112.237 E53.89201
G1 X96.714 Y112.092 E53.93101
G1 X97.216 Y112.016 E53.96478
G1 X97.767 Y111.989 E54.00148
