;FLAVOR:Marlin
;TIME:5857
;Filament used: 3.73158m
;Layer height: 0.2
;MINX:78.3
;MINY:57.6
;MINZ:0.2
;MAXX:156.7
;MAXY:177.399
;MAXZ:5.2
;TARGET_MACHINE.NAME:Creality Ender-3
;Generated with Cura_SteamEngine 5.7.2
M140 S65
M105
M190 S65
M104 S215
M105
M109 S215
M82 ;absolute extrusion mode
; Ender 3 Custom Start G-code
G92 E0 ; Reset Extruder
G28 ; Home all axes
G1 Z2.0 F3000 ; Move Z Axis up little to prevent scratching of Heat Bed
G1 X0.1 Y20 Z0.3 F5000.0 ; Move to start position
G1 X0.1 Y200.0 Z0.3 F1500.0 E15 ; Draw the first line
G1 X0.4 Y200.0 Z0.3 F5000.0 ; Move to side a little
G1 X0.4 Y20 Z0.3 F1500.0 E30 ; Draw the second line
G92 E0 ; Reset Extruder
G1 Z2.0 F3000 ; Move Z Axis up little to prevent scratching of Heat Bed
G1 X5 Y20 Z0.3 F5000.0 ; Move over to prevent blob squish
G92 E0
G92 E0
G1 F2700 E-5
;LAYER_COUNT:26
;LAYER:0
M107
G0 F6000 X80.94 Y60.284 Z0.2
;TYPE:SKIRT
G1 F2700 E0
G1 F900 X83.009 Y58.753 E0.08561
G1 X85.235 Y57.83 E0.16576
G1 X87.604 Y57.6 E0.24492
G1 X142.533 Y57.679 E2.07187
G1 X143.879 Y57.876 E2.11711
G1 X145.998 Y58.754 E2.1934
G1 X148.048 Y60.272 E2.27824
G1 X149.568 Y62.342 E2.36366
G1 X150.441 Y64.45 E2.43955
G1 X150.649 Y66.011 E2.49192
G1 X150.7 Y139.988 E4.95241
G1 X155.305 Y151.603 E5.36798
G1 X155.89 Y153.38 E5.4302
G1 X156.276 Y154.984 E5.48508
G1 X156.64 Y157.583 E5.57236
G1 X156.7 Y159.224 E5.62698
G1 X156.665 Y162.108 E5.72291
G1 X156.501 Y163.57 E5.77184
G1 X155.708 Y165.869 E5.85273
G1 X154.55 Y167.621 E5.92258
G1 X148.509 Y175.07 E6.24156
G1 X147.163 Y176.12 E6.29834
G1 X145.963 Y176.848 E6.34503
G1 X143.943 Y177.362 E6.41435
G1 X142.07 Y177.399 E6.47666
G1 X140.883 Y177.174 E6.51684
G1 X139.213 Y176.505 E6.57668
G1 X137.5 Y175.32 E6.64596
G1 X136.817 Y174.4 E6.68407
G1 X85.248 Y174.4 E8.39926
G1 X83.352 Y173.934 E8.4642
G1 X81.315 Y172.882 E8.54045
G1 X79.863 Y171.31 E8.61163
G1 X78.998 Y169.838 E8.66841
G1 X78.569 Y168.848 E8.7043
G1 X78.3 Y166.6 E8.7796
G1 X78.379 Y65.774 E12.13309
G1 X78.576 Y64.41 E12.17892
G1 X79.454 Y62.292 E12.25518
G1 X80.94 Y60.284 E12.33827
G0 F6000 X81.226 Y60.57
G1 F900 X83.205 Y59.105 E12.42016
G1 X85.335 Y58.222 E12.49685
G1 X87.603 Y58 E12.57265
G1 X142.475 Y58.075 E14.3977
G1 X143.775 Y58.265 E14.4414
G1 X145.796 Y59.103 E14.51417
G1 X147.763 Y60.559 E14.59556
G1 X149.216 Y62.538 E14.67722
G1 X150.051 Y64.554 E14.7498
G1 X150.252 Y66.064 E14.80046
G1 X150.3 Y140.065 E17.26175
G1 X154.925 Y151.728 E17.67905
G1 X155.501 Y153.474 E17.7402
G1 X155.887 Y155.078 E17.79507
G1 X156.24 Y157.598 E17.8797
G1 X156.3 Y159.219 E17.93365
G1 X156.267 Y162.064 E18.02829
G1 X156.108 Y163.485 E18.07584
G1 X155.348 Y165.688 E18.15335
G1 X154.216 Y167.4 E18.22162
G1 X148.227 Y174.782 E18.53778
G1 X146.955 Y175.778 E18.59152
G1 X145.807 Y176.475 E18.63619
G1 X143.888 Y176.963 E18.70204
G1 X142.103 Y176.998 E18.76142
G1 X140.995 Y176.788 E18.79893
G1 X139.405 Y176.151 E18.8559
G1 X137.78 Y175.027 E18.92162
G1 X137.018 Y174 E18.96415
G1 X85.294 Y174 E20.6845
G1 X83.495 Y173.558 E20.74611
G1 X81.561 Y172.559 E20.81851
G1 X80.187 Y171.072 E20.88585
G1 X79.343 Y169.635 E20.94128
G1 X78.959 Y168.744 E20.97355
G1 X78.7 Y166.6 E21.04538
G1 X78.775 Y65.831 E24.39697
G1 X78.965 Y64.514 E24.44123
G1 X79.804 Y62.491 E24.51407
G1 X81.226 Y60.57 E24.59356
G0 F6000 X81.514 Y60.854
G1 F900 X83.401 Y59.457 E24.67165
G1 X85.435 Y58.614 E24.74489
G1 X87.602 Y58.4 E24.81731
G1 X142.417 Y58.471 E26.64047
G1 X143.667 Y58.654 E26.68248
G1 X145.6 Y59.455 E26.75208
G1 X147.476 Y60.844 E26.82972
G1 X148.864 Y62.734 E26.90771
G1 X149.661 Y64.658 E26.97697
G1 X149.855 Y66.117 E27.02593
G1 X149.9 Y140.142 E29.48801
G1 X154.545 Y151.854 E29.90707
G1 X155.112 Y153.568 E29.96712
G1 X155.498 Y155.172 E30.02199
G1 X155.84 Y157.613 E30.10397
G1 X155.9 Y159.215 E30.15729
G1 X155.869 Y162.02 E30.25059
G1 X155.715 Y163.4 E30.29677
G1 X154.988 Y165.507 E30.37091
G1 X153.882 Y167.179 E30.43758
G1 X147.945 Y174.495 E30.75096
G1 X146.747 Y175.436 E30.80162
G1 X145.651 Y176.102 E30.84428
G1 X143.833 Y176.564 E30.90667
G1 X142.136 Y176.597 E30.96312
G1 X141.107 Y176.402 E30.99796
G1 X139.597 Y175.797 E31.05206
G1 X138.06 Y174.734 E31.11422
G1 X137.219 Y173.6 E31.16117
G1 X85.341 Y173.6 E32.88664
G1 X83.637 Y173.181 E32.94501
G1 X81.807 Y172.236 E33.01351
G1 X80.509 Y170.831 E33.07713
G1 X79.71 Y169.477 E33.12942
G1 X79.349 Y168.64 E33.15974
G1 X79.1 Y166.6 E33.22809
G1 X79.171 Y65.888 E36.57779
G1 X79.354 Y64.622 E36.62033
G1 X80.155 Y62.69 E36.68989
G1 X81.514 Y60.854 E36.76587
G0 F6000 X81.8 Y61.14
G1 F900 X83.597 Y59.809 E36.84025
G1 X85.535 Y59.006 E36.91002
G1 X87.602 Y58.8 E36.97911
G1 X142.359 Y58.867 E38.80033
G1 X143.563 Y59.043 E38.8408
G1 X145.398 Y59.804 E38.90688
G1 X147.191 Y61.131 E38.98107
G1 X148.512 Y62.93 E39.0553
G1 X149.271 Y64.762 E39.12126
G1 X149.458 Y66.17 E39.1685
G1 X149.5 Y140.219 E41.63138
G1 X154.165 Y151.98 E42.0522
G1 X154.723 Y153.662 E42.11114
G1 X155.109 Y155.266 E42.16601
G1 X155.44 Y157.628 E42.24534
G1 X155.5 Y159.211 E42.29803
G1 X155.471 Y161.976 E42.39
G1 X155.322 Y163.315 E42.43481
G1 X154.628 Y165.326 E42.50557
G1 X153.548 Y166.958 E42.57066
G1 X147.663 Y174.208 E42.88124
G1 X146.5 Y175.121 E42.93041
G1 X145.496 Y175.729 E42.96945
G1 X143.779 Y176.165 E43.02837
G1 X142.169 Y176.196 E43.08193
G1 X141.219 Y176.016 E43.11409
G1 X139.789 Y175.443 E43.16533
G1 X138.34 Y174.441 E43.22392
G1 X137.42 Y173.2 E43.2753
G1 X85.387 Y173.2 E45.00593
G1 X83.78 Y172.805 E45.06097
G1 X82.053 Y171.913 E45.12562
G1 X80.833 Y170.593 E45.1854
G1 X80.055 Y169.274 E45.23633
G1 X79.739 Y168.534 E45.2631
G1 X79.5 Y166.6 E45.32791
G1 X79.567 Y65.945 E48.67571
G1 X79.743 Y64.73 E48.71654
G1 X80.507 Y62.886 E48.78293
G1 X81.8 Y61.14 E48.85519
G0 F6000 X82.086 Y61.426
G1 F900 X83.799 Y60.158 E48.92608
G1 X85.632 Y59.398 E48.99208
G1 X87.602 Y59.2 E49.05793
G1 X142.301 Y59.263 E50.87723
G1 X143.455 Y59.432 E50.91602
G1 X145.202 Y60.156 E50.97892
G1 X146.904 Y61.416 E51.04935
G1 X148.16 Y63.126 E51.11992
G1 X148.881 Y64.866 E51.18256
G1 X149.061 Y66.223 E51.22809
G1 X149.1 Y140.296 E53.69177
G1 X153.785 Y152.106 E54.11435
G1 X154.334 Y153.756 E54.17219
G1 X154.72 Y155.36 E54.22706
G1 X155.04 Y157.643 E54.30373
G1 X155.1 Y159.207 E54.35579
G1 X155.073 Y161.932 E54.44643
G1 X154.929 Y163.228 E54.4898
G1 X154.267 Y165.146 E54.55729
G1 X153.214 Y166.737 E54.62074
G1 X147.381 Y173.921 E54.92853
G1 X146.253 Y174.806 E54.97621
G1 X145.34 Y175.356 E55.01166
G1 X143.725 Y175.766 E55.06708
G1 X142.202 Y175.795 E55.11775
G1 X141.331 Y175.63 E55.14723
G1 X139.979 Y175.088 E55.19568
G1 X138.621 Y174.15 E55.25057
G1 X137.621 Y172.8 E55.30645
G1 X85.433 Y172.8 E57.04223
G1 X83.923 Y172.429 E57.09395
G1 X82.301 Y171.591 E57.15467
G1 X81.155 Y170.352 E57.21081
G1 X80.4 Y169.071 E57.26026
G1 X80.129 Y168.43 E57.28341
G1 X79.9 Y166.6 E57.34475
G1 X79.963 Y66.002 E60.69065
G1 X80.132 Y64.834 E60.7299
G1 X80.856 Y63.088 E60.79277
G1 X82.086 Y61.426 E60.86154
G0 F6000 X82.374 Y61.71
G1 F900 X83.995 Y60.51 E60.92862
G1 X85.732 Y59.79 E60.99116
G1 X87.602 Y59.6 E61.05368
G1 X142.243 Y59.659 E62.87105
G1 X143.351 Y59.821 E62.90829
G1 X145.003 Y60.506 E62.96777
G1 X146.617 Y61.701 E63.03457
G1 X147.81 Y63.325 E63.10159
G1 X148.491 Y64.967 E63.16071
G1 X148.664 Y66.275 E63.2046
G1 X148.7 Y140.374 E65.66914
G1 X153.413 Y152.254 E66.09423
G1 X153.945 Y153.85 E66.15018
G1 X154.331 Y155.454 E66.20505
G1 X154.64 Y157.659 E66.27911
G1 X154.7 Y159.203 E66.3305
G1 X154.673 Y161.928 E66.42114
G1 X154.537 Y163.137 E66.46161
G1 X153.905 Y164.968 E66.52603
G1 X152.903 Y166.485 E66.5865
G1 X147.098 Y173.634 E66.89279
G1 X146.047 Y174.463 E66.93731
G1 X145.184 Y174.983 E66.97083
G1 X143.671 Y175.367 E67.02274
G1 X142.235 Y175.394 E67.07051
G1 X141.443 Y175.244 E67.09732
G1 X140.169 Y174.733 E67.14298
G1 X138.904 Y173.86 E67.1941
G1 X137.973 Y172.609 E67.24597
G1 X137.854 Y172.4 E67.25396
G1 X85.48 Y172.4 E68.99593
G1 X84.065 Y172.052 E69.0444
G1 X82.549 Y171.269 E69.10115
G1 X81.477 Y170.111 E69.15363
G1 X80.745 Y168.868 E69.20161
G1 X80.519 Y168.326 E69.22114
G1 X80.3 Y166.6 E69.27901
G1 X80.359 Y66.059 E72.62302
G1 X80.521 Y64.942 E72.66056
G1 X81.207 Y63.287 E72.72014
G1 X82.374 Y61.71 E72.7854
G0 F6000 X82.66 Y61.996
G1 F900 X84.194 Y60.86 E72.84888
G1 X85.829 Y60.182 E72.90775
G1 X87.602 Y60 E72.96703
G1 X142.185 Y60.055 E74.78247
G1 X143.243 Y60.21 E74.81804
G1 X144.804 Y60.857 E74.87424
G1 X146.332 Y61.988 E74.93747
G1 X147.458 Y63.521 E75.00073
G1 X148.101 Y65.072 E75.05658
G1 X148.267 Y66.327 E75.09868
G1 X148.3 Y140.452 E77.56409
G1 X153.041 Y152.402 E77.99169
G1 X153.556 Y153.944 E78.04576
G1 X153.942 Y155.548 E78.10063
G1 X154.24 Y157.675 E78.17206
G1 X154.3 Y159.199 E78.22279
G1 X154.275 Y161.883 E78.31207
G1 X154.144 Y163.05 E78.35113
G1 X153.543 Y164.79 E78.41235
G1 X152.592 Y166.233 E78.46983
G1 X146.814 Y173.348 E78.77468
G1 X145.841 Y174.12 E78.81599
G1 X145.028 Y174.61 E78.84757
G1 X143.617 Y174.968 E78.89598
G1 X142.268 Y174.993 E78.94086
G1 X141.555 Y174.858 E78.96499
G1 X140.359 Y174.378 E79.00786
G1 X139.187 Y173.569 E79.05522
G1 X138.294 Y172.37 E79.10495
G1 X138.091 Y172 E79.11898
G1 X85.526 Y172 E80.8673
G1 X84.208 Y171.676 E80.91244
G1 X82.795 Y170.946 E80.96534
G1 X81.801 Y169.873 E81.01399
G1 X81.09 Y168.665 E81.06061
G1 X80.91 Y168.224 E81.07645
G1 X80.7 Y166.6 E81.13092
G1 X80.755 Y66.116 E84.47303
G1 X80.91 Y65.046 E84.50899
G1 X81.557 Y63.486 E84.56516
G1 X82.66 Y61.996 E84.62682
G0 F6000 X82.948 Y62.28
G1 F900 X84.39 Y61.212 E84.6865
G1 X85.929 Y60.574 E84.74191
G1 X87.602 Y60.4 E84.79786
G1 X142.127 Y60.451 E86.61137
G1 X143.139 Y60.599 E86.64539
G1 X144.605 Y61.207 E86.69817
G1 X146.045 Y62.273 E86.75776
G1 X147.106 Y63.717 E86.81736
G1 X147.711 Y65.177 E86.86993
G1 X147.87 Y66.379 E86.91025
G1 X147.9 Y140.53 E89.37652
G1 X152.669 Y152.55 E89.80663
G1 X153.167 Y154.038 E89.85882
G1 X153.553 Y155.642 E89.91369
G1 X153.84 Y157.691 E89.9825
G1 X153.9 Y159.196 E90.0326
G1 X153.877 Y161.838 E90.12048
G1 X153.751 Y162.963 E90.15813
G1 X153.181 Y164.612 E90.21616
G1 X152.281 Y165.981 E90.27065
G1 X146.53 Y173.063 E90.57408
G1 X145.634 Y173.777 E90.61219
G1 X144.871 Y174.237 E90.64182
G1 X143.563 Y174.569 E90.6867
G1 X142.301 Y174.592 E90.72869
G1 X141.667 Y174.472 E90.75015
G1 X140.549 Y174.023 E90.79022
G1 X139.469 Y173.278 E90.83386
G1 X138.645 Y172.177 E90.8796
G1 X138.328 Y171.6 E90.90149
G1 X85.572 Y171.6 E92.65616
G1 X84.351 Y171.3 E92.69798
G1 X83.041 Y170.623 E92.74703
G1 X82.125 Y169.635 E92.79184
G1 X81.435 Y168.462 E92.8371
G1 X81.301 Y168.123 E92.84923
G1 X81.1 Y166.6 E92.90032
G1 X81.151 Y66.173 E96.24054
G1 X81.299 Y65.154 E96.27479
G1 X81.908 Y63.685 E96.32768
G1 X82.948 Y62.28 E96.38582
G0 F6000 X83.236 Y62.564
G1 F900 X84.586 Y61.564 E96.44169
G1 X86.029 Y60.966 E96.49365
G1 X87.602 Y60.8 E96.54626
G1 X142.069 Y60.847 E98.35784
G1 X143.031 Y60.988 E98.39017
G1 X144.409 Y61.559 E98.43979
G1 X145.758 Y62.558 E98.49562
G1 X146.754 Y63.913 E98.55155
G1 X147.321 Y65.282 E98.60083
G1 X147.473 Y66.431 E98.63938
G1 X147.5 Y140.607 E101.10649
G1 X152.297 Y152.698 E101.53913
G1 X152.778 Y154.132 E101.58944
G1 X153.164 Y155.736 E101.64431
G1 X153.44 Y157.707 E101.7105
G1 X153.5 Y159.193 E101.75997
G1 X153.479 Y161.794 E101.84648
G1 X153.358 Y162.876 E101.88269
G1 X152.819 Y164.433 E101.93749
G1 X151.97 Y165.729 E101.98902
G1 X146.245 Y172.779 E102.29108
G1 X145.428 Y173.434 E102.32591
G1 X144.716 Y173.863 E102.35356
G1 X143.508 Y174.17 E102.39502
G1 X142.334 Y174.191 E102.43407
G1 X141.779 Y174.086 E102.45286
G1 X140.739 Y173.668 E102.49014
G1 X139.752 Y172.988 E102.53
G1 X138.996 Y171.984 E102.5718
G1 X138.565 Y171.2 E102.60156
G1 X85.618 Y171.2 E104.36258
G1 X84.494 Y170.924 E104.40108
G1 X83.287 Y170.3 E104.44627
G1 X82.448 Y169.395 E104.48732
G1 X81.807 Y168.315 E104.52909
G1 X81.69 Y168.02 E104.53964
G1 X81.5 Y166.6 E104.58729
G1 X81.547 Y66.231 E107.92558
G1 X81.688 Y65.262 E107.95815
G1 X82.259 Y63.884 E108.00776
G1 X83.236 Y62.564 E108.06238
G0 F6000 X83.524 Y62.848
G1 F900 X84.785 Y61.914 E108.11457
G1 X86.126 Y61.358 E108.16286
G1 X87.602 Y61.2 E108.21223
G1 X142.011 Y61.243 E110.02188
G1 X142.927 Y61.377 E110.05267
G1 X144.207 Y61.908 E110.09876
G1 X145.473 Y62.845 E110.15115
G1 X146.402 Y64.109 E110.20332
G1 X146.931 Y65.387 E110.24933
G1 X147.076 Y66.483 E110.2861
G1 X147.1 Y140.684 E112.75403
G1 X151.918 Y152.826 E113.18851
G1 X152.389 Y154.226 E113.23764
G1 X152.775 Y155.83 E113.29251
G1 X153.04 Y157.723 E113.35608
G1 X153.1 Y159.19 E113.40492
G1 X153.081 Y161.75 E113.49007
G1 X152.965 Y162.789 E113.52484
G1 X152.457 Y164.255 E113.57644
G1 X151.659 Y165.477 E113.62498
G1 X145.959 Y172.496 E113.92572
G1 X145.222 Y173.091 E113.95722
G1 X144.561 Y173.489 E113.98289
G1 X143.453 Y173.771 E114.02091
G1 X142.367 Y173.79 E114.05704
G1 X141.891 Y173.7 E114.07315
G1 X140.929 Y173.313 E114.10764
G1 X140.034 Y172.697 E114.14378
G1 X139.347 Y171.791 E114.1816
G1 X138.902 Y170.981 E114.21233
G1 X138.85 Y170.8 E114.2186
G1 X85.664 Y170.8 E115.98757
G1 X84.637 Y170.548 E116.02274
G1 X83.533 Y169.977 E116.06408
G1 X82.769 Y169.154 E116.10143
G1 X82.179 Y168.167 E116.13968
G1 X82.079 Y167.915 E116.1487
G1 X81.9 Y166.6 E116.19284
G1 X81.943 Y66.289 E119.52919
G1 X82.077 Y65.37 E119.56008
G1 X82.61 Y64.083 E119.60641
G1 X83.524 Y62.848 E119.65752
G0 F6000 X83.812 Y63.132
G1 F900 X84.984 Y62.264 E119.70602
G1 X86.223 Y61.75 E119.75064
G1 X87.602 Y61.6 E119.79677
G1 X141.953 Y61.639 E121.6045
G1 X142.819 Y61.766 E121.63361
G1 X144.011 Y62.26 E121.67652
G1 X145.186 Y63.13 E121.72515
G1 X146.05 Y64.305 E121.77366
G1 X146.541 Y65.492 E121.81638
G1 X146.679 Y66.535 E121.85138
G1 X146.7 Y140.762 E124.32018
G1 X151.539 Y152.954 E124.75646
G1 X152 Y154.32 E124.80441
G1 X152.386 Y155.924 E124.85928
G1 X152.64 Y157.74 E124.92027
G1 X152.7 Y159.187 E124.96844
G1 X152.683 Y161.706 E125.05222
G1 X152.572 Y162.702 E125.08555
G1 X152.095 Y164.079 E125.13402
G1 X151.348 Y165.225 E125.17952
G1 X145.674 Y172.212 E125.47888
G1 X145.016 Y172.748 E125.50711
G1 X144.406 Y173.115 E125.53079
G1 X143.398 Y173.372 E125.56539
G1 X142.4 Y173.389 E125.59859
G1 X142.005 Y173.315 E125.61195
G1 X141.117 Y172.957 E125.6438
G1 X140.315 Y172.405 E125.67618
G1 X139.698 Y171.598 E125.70997
G1 X139.253 Y170.788 E125.74071
G1 X139.196 Y170.4 E125.75375
G1 X85.71 Y170.4 E127.5327
G1 X84.78 Y170.172 E127.56455
G1 X83.778 Y169.654 E127.60207
G1 X83.09 Y168.912 E127.63572
G1 X82.522 Y167.962 E127.67254
G1 X82.469 Y167.813 E127.6778
G1 X82.3 Y166.6 E127.71853
G1 X82.339 Y66.347 E131.05296
G1 X82.466 Y65.474 E131.0823
G1 X82.959 Y64.285 E131.12511
G1 X83.812 Y63.132 E131.17281
G0 F6000 X84.098 Y63.418
G1 F900 X85.183 Y62.614 E131.21773
G1 X86.32 Y62.142 E131.25867
G1 X87.602 Y62 E131.30157
G1 X141.895 Y62.035 E133.10737
G1 X142.715 Y62.155 E133.13493
G1 X143.809 Y62.609 E133.17433
G1 X144.901 Y63.417 E133.21951
G1 X145.698 Y64.501 E133.26426
G1 X146.151 Y65.597 E133.3037
G1 X146.282 Y66.587 E133.33692
G1 X146.3 Y140.84 E135.80658
G1 X151.16 Y153.082 E136.24467
G1 X151.611 Y154.414 E136.29144
G1 X151.997 Y156.018 E136.34631
G1 X152.24 Y157.757 E136.40471
G1 X152.3 Y159.185 E136.45225
G1 X152.285 Y161.662 E136.53464
G1 X152.179 Y162.615 E136.56653
G1 X151.733 Y163.903 E136.61186
G1 X151.037 Y164.973 E136.65432
G1 X145.389 Y171.928 E136.95231
G1 X144.763 Y172.438 E136.97917
G1 X144.252 Y172.741 E136.99893
G1 X143.343 Y172.973 E137.03013
G1 X142.432 Y172.988 E137.06043
G1 X142.12 Y172.93 E137.07099
G1 X141.309 Y172.603 E137.10007
G1 X140.594 Y172.111 E137.12894
G1 X140.016 Y171.355 E137.16059
