;FLAVOR:Marlin
;TIME:4571
;Filament used: 3.51848m
;Layer height: 0.2
;MINX:86.3
;MINY:65.6
;MINZ:0.4
;MAXX:148.7
;MAXY:169.4
;MAXZ:5.2
;TARGET_MACHINE.NAME:Creality Ender-3
;Generated with Cura_SteamEngine 5.7.2
M140 S65
M105
M190 S65
M104 S215
M105
M109 S215
M82 ;absolute extrusion mode
; Ender 3 Custom Start G-code
G92 E0 ; Reset Extruder
G28 ; Home all axes
G1 Z2.0 F3000 ; Move Z Axis up little to prevent scratching of Heat Bed
G1 X0.1 Y20 Z0.3 F5000.0 ; Move to start position
G1 X0.1 Y200.0 Z0.3 F1500.0 E15 ; Draw the first line
G1 X0.4 Y200.0 Z0.3 F5000.0 ; Move to side a little
G1 X0.4 Y20 Z0.3 F1500.0 E30 ; Draw the second line
G92 E0 ; Reset Extruder
G1 Z2.0 F3000 ; Move Z Axis up little to prevent scratching of Heat Bed
G1 X5 Y20 Z0.3 F5000.0 ; Move over to prevent blob squish
G92 E0
G92 E0
G1 F2700 E-5
;LAYER_COUNT:25
;LAYER:0
M107
;MESH:change_compartment_orange.stl
G0 F6000 X107.714 Y70.637 Z0.4
;TYPE:WALL-INNER
G1 F2700 E0
G1 F1307.9 X107.3 Y70.675 E0.02537
G1 F1340.8 X106.888 Y70.637 E0.05001
G1 F1253.3 X106.503 Y70.496 E0.07612
G1 F1200 X106.163 Y70.236 E0.10459
G1 X105.912 Y69.901 E0.13244
G1 X105.746 Y69.513 E0.16051
G1 X105.695 Y69.1 E0.18819
G1 X105.746 Y68.689 E0.21574
G1 X105.911 Y68.294 E0.24422
G1 X106.163 Y67.964 E0.27184
G1 X106.493 Y67.711 E0.2995
G1 X106.884 Y67.547 E0.3277
G1 X107.3 Y67.5 E0.35555
G1 X107.707 Y67.544 E0.38278
G1 X108.096 Y67.708 E0.41087
G1 X108.434 Y67.96 E0.43891
G1 X108.691 Y68.296 E0.46705
G1 X108.849 Y68.688 E0.49516
G1 X108.907 Y69.1 E0.52284
G1 X108.849 Y69.514 E0.55065
G1 X108.692 Y69.896 E0.57812
G1 X108.436 Y70.237 E0.60649
G1 X108.089 Y70.497 E0.63533
G1 F1224.5 X107.714 Y70.637 E0.66142
G1 F2700 E-4.33858
G0 F6000 X108.116 Y70.596
G0 X107.755 Y70.782
G0 X107.26 Y70.85
G0 X115.128 Y71.172
G0 X115.139 Y74.625
G0 X114.935 Y76.42
G0 X114.58 Y78.186
G0 X114.078 Y79.916
G0 X113.433 Y81.596
G0 X112.65 Y83.217
G0 X111.732 Y84.766
G0 X110.687 Y86.234
G0 X109.523 Y87.608
G0 X108.247 Y88.878
G0 X106.87 Y90.037
G0 X103.663 Y92.2
G1 F2700 E0.66142
G1 F1200 X93.229 Y92.196 E1.3555
G1 X93.069 Y92.154 E1.3665
G1 X92.897 Y92.046 E1.38001
G1 X92.756 Y91.855 E1.3958
G1 X92.7 Y91.679 E1.40809
G1 X92.7 Y71.514 E2.74947
G1 X92.749 Y71.36 E2.76022
G1 X92.891 Y71.16 E2.77654
G1 X93.181 Y71 E2.79857
G1 X106.479 Y70.999 E3.68316
G1 F1280 X107.3 Y71.025 E3.73438
G1 X108.122 Y70.999 E3.78567
G1 F1200 X114.814 Y71 E4.23082
G1 X115.095 Y71.147 E4.25192
G1 X115.24 Y71.336 E4.26776
G1 X115.295 Y71.52 E4.28054
G1 X115.297 Y74.665 E4.48975
G1 X115.089 Y76.468 E4.61048
G1 X114.737 Y78.204 E4.72831
G1 X114.221 Y79.995 E4.85229
G1 X113.583 Y81.659 E4.97084
G1 X112.789 Y83.293 E5.09168
G1 X111.85 Y84.872 E5.21389
G1 X110.814 Y86.329 E5.33281
G1 X109.641 Y87.712 E5.45344
G1 X108.354 Y88.995 E5.57433
G1 X106.967 Y90.164 E5.69499
G1 X105.465 Y91.222 E5.8172
G1 X103.896 Y92.142 E5.93819
G1 X103.663 Y92.2 E5.95417
G1 F2700 E0.95417
G0 F6000 X106.26 Y90.448
G0 X109.797 Y87.809
G0 X137.587 Y70.654
G0 X138.462 Y70.7
G1 F2700 E5.95417
G1 F1200 X138.049 Y70.642 E5.98191
G1 X137.684 Y70.493 E6.00813
G1 X137.338 Y70.238 E6.03672
G1 X137.078 Y69.898 E6.0652
G1 X136.922 Y69.52 E6.0924
G1 X136.862 Y69.106 E6.12022
G1 X136.914 Y68.687 E6.14831
G1 X137.08 Y68.299 E6.17638
G1 X137.33 Y67.965 E6.20414
G1 X137.667 Y67.706 E6.23241
G1 X138.055 Y67.547 E6.2603
G1 X138.468 Y67.5 E6.28795
G1 X138.874 Y67.544 E6.31512
G1 X139.269 Y67.706 E6.34352
G1 X139.606 Y67.965 E6.37179
G1 X139.856 Y68.293 E6.39922
G1 X140.023 Y68.684 E6.42751
G1 X140.068 Y69.1 E6.45534
G1 X140.022 Y69.515 E6.48311
G1 X139.857 Y69.902 E6.5111
G1 X139.601 Y70.241 E6.53936
G1 X139.269 Y70.49 E6.56696
G1 X138.877 Y70.651 E6.59515
G1 X138.462 Y70.7 E6.62295
G1 F2700 E1.62295
G0 F6000 X138.576 Y70.793
G0 X144.8 Y152.813
G0 X144.389 Y156.149
G1 F2700 E6.62295
G1 F1200 X143.997 Y155.985 E6.65122
G1 X143.661 Y155.736 E6.67904
G1 X143.414 Y155.398 E6.70688
G1 X143.245 Y155.003 E6.73546
G1 X143.195 Y154.594 E6.76287
G1 X143.249 Y154.18 E6.79065
G1 X143.418 Y153.783 E6.81935
G1 X143.662 Y153.473 E6.84559
G1 X143.989 Y153.213 E6.87338
G1 X144.387 Y153.046 E6.90209
G1 X144.8 Y152.995 E6.92977
G1 X145.217 Y153.047 E6.95773
G1 X145.605 Y153.214 E6.98583
G1 X145.937 Y153.463 E7.01343
G1 X146.196 Y153.809 E7.04218
G1 X146.35 Y154.192 E7.06964
G1 X146.4 Y154.584 E7.09593
G1 X146.35 Y155.011 E7.12453
G1 X146.188 Y155.395 E7.15225
G1 X145.941 Y155.735 E7.18021
G1 X145.6 Y155.99 E7.20853
G1 X145.212 Y156.149 E7.23642
G1 X144.798 Y156.207 E7.26423
G1 X144.389 Y156.149 E7.29171
G1 F2700 E2.29171
G0 F6000 X144.679 Y156.292
G0 X147.686 Y162.439
G0 X143.336 Y168.107
G1 F2700 E7.29171
G1 F1200 X147.848 Y162.556 E7.76756
G1 X148.102 Y162.157 E7.79902
G1 X148.247 Y161.758 E7.82726
G1 X148.3 Y161.294 E7.85833
G1 X148.3 Y159.191 E7.99822
G1 X148.238 Y157.95 E8.08088
G1 X148.066 Y156.758 E8.16099
G1 X147.782 Y155.579 E8.24166
G1 X147.376 Y154.385 E8.32555
G1 X142.3 Y141.605 E9.24028
G1 X142.3 Y66.947 E14.20655
G1 X142.26 Y66.667 E14.22537
G1 X142.171 Y66.45 E14.24097
G1 X142.031 Y66.268 E14.25624
G1 X141.845 Y66.125 E14.27185
G1 X141.632 Y66.037 E14.28718
G1 X141.352 Y66 E14.30597
G1 X87.644 Y66 E17.87864
G1 X87.364 Y66.037 E17.89743
G1 X87.153 Y66.124 E17.91261
G1 X86.968 Y66.268 E17.9282
G1 X86.824 Y66.453 E17.9438
G1 X86.737 Y66.664 E17.95898
G1 X86.7 Y66.944 E17.97777
G1 X86.7 Y166 E24.567
G1 X142.819 Y166 E28.30005
G1 X143.012 Y166.067 E28.31364
G1 X143.211 Y166.233 E28.33088
G1 X143.336 Y166.6 E28.35667
G1 X143.336 Y168.107 E28.45691
G0 F6000 X143.669 Y167.537
G0 X143.171 Y168.58
G0 X142.959 Y169.204
;TYPE:WALL-OUTER
G1 F1200 X148.173 Y162.79 E29.00676
G1 X148.463 Y162.335 E29.04266
G1 X148.639 Y161.85 E29.07698
G1 X148.7 Y161.316 E29.11273
G1 X148.7 Y159.181 E29.25475
G1 X148.636 Y157.912 E29.33927
G1 X148.459 Y156.682 E29.42194
G1 X148.167 Y155.468 E29.50499
G1 X147.748 Y154.237 E29.59149
G1 X142.701 Y141.528 E30.50112
G1 X142.7 Y66.919 E35.46413
G1 X142.649 Y66.561 E35.48819
G1 X142.521 Y66.249 E35.51062
G1 X142.317 Y65.983 E35.53292
G1 X142.047 Y65.775 E35.55559
G1 X141.736 Y65.647 E35.57796
G1 X141.378 Y65.6 E35.60198
G1 X87.618 Y65.6 E39.17811
G1 X87.26 Y65.647 E39.20213
G1 X86.95 Y65.775 E39.22444
G1 X86.683 Y65.983 E39.24695
G1 X86.475 Y66.25 E39.26947
G1 X86.347 Y66.56 E39.29178
G1 X86.3 Y66.918 E39.3158
G1 X86.3 Y166.4 E45.93337
G1 X142.775 Y166.403 E49.6901
G1 X142.895 Y166.477 E49.69948
G1 X142.936 Y166.6 E49.7081
G1 X142.936 Y169.193 E49.88059
G1 X142.959 Y169.204 E49.88229
G1 F2700 E44.88229
G0 F6000 X143.171 Y168.58
G0 X147.686 Y162.439
G0 X145.261 Y156.324
G0 X144.476 Y155.753
G1 F2700 E49.88229
G1 F1200 X144.196 Y155.638 E49.90242
G1 X143.949 Y155.449 E49.92311
G1 X143.762 Y155.2 E49.94382
G1 X143.636 Y154.898 E49.96559
G1 X143.6 Y154.612 E49.98477
G1 X143.635 Y154.306 E50.00525
G1 X143.757 Y154.005 E50.02686
G1 X143.948 Y153.752 E50.04795
G1 X144.218 Y153.551 E50.07034
G1 X144.493 Y153.436 E50.09016
G1 X144.825 Y153.401 E50.11237
G1 X145.135 Y153.447 E50.13322
G1 X145.42 Y153.575 E50.154
G1 X145.65 Y153.748 E50.17315
G1 X145.835 Y153.991 E50.19346
G1 X145.963 Y154.316 E50.2167
G1 X146 Y154.594 E50.23535
G1 X145.949 Y154.932 E50.25809
G1 X145.839 Y155.199 E50.2773
G1 X145.651 Y155.453 E50.29832
G1 X145.376 Y155.65 E50.32082
G1 X145.129 Y155.751 E50.33858
G1 X144.798 Y155.803 E50.36086
G1 X144.476 Y155.753 E50.38254
G1 F2700 E45.38254
G0 F6000 X144.679 Y156.292
G0 X143.78 Y155.62
G0 X143.551 Y155.322
G0 X143.406 Y154.973
G0 X143.366 Y154.671
G0 X143.554 Y153.32
G0 X105.575 Y91.367
G0 X103.686 Y91.8
G1 F2700 E50.38254
G1 F1200 X93.276 Y91.799 E51.07502
G1 X93.165 Y91.749 E51.08311
G1 X93.102 Y91.635 E51.09178
G1 X93.104 Y71.558 E52.42731
G1 X93.163 Y71.453 E52.43532
G1 X93.248 Y71.406 E52.44178
G1 X114.773 Y71.4 E53.87363
G1 X114.899 Y71.532 E53.88577
G1 X114.899 Y74.619 E54.09111
G1 X114.697 Y76.388 E54.20955
G1 X114.341 Y78.14 E54.32848
G1 X113.847 Y79.852 E54.44701
G1 X113.212 Y81.508 E54.56499
G1 X112.432 Y83.111 E54.68357
G1 X111.524 Y84.64 E54.80186
G1 X110.493 Y86.09 E54.92021
G1 X109.342 Y87.446 E55.03853
G1 X108.084 Y88.7 E55.15669
G1 X106.716 Y89.852 E55.27565
G1 X105.262 Y90.877 E55.39399
G1 X103.686 Y91.8 E55.51548
G1 F2700 E50.51548
G0 F6000 X103.686 Y92.1
G0 X105.398 Y91.076
G0 X106.87 Y90.037
G0 X108.247 Y88.878
G0 X109.523 Y87.608
G0 X110.687 Y86.234
G0 X111.732 Y84.766
G0 X112.65 Y83.217
G0 X113.433 Y81.596
G0 X114.078 Y79.916
G0 X114.58 Y78.186
G0 X114.935 Y76.42
G0 X115.139 Y74.625
G0 X115.128 Y71.172
G0 X107.34 Y70.85
G0 X107.262 Y70.598
G0 X107.3 Y70.3
G1 F2700 E55.51548
G1 F1200 X107.016 Y70.263 E55.53454
G1 X106.721 Y70.15 E55.55555
G1 X106.449 Y69.952 E55.57793
G1 X106.252 Y69.679 E55.60032
G1 X106.136 Y69.406 E55.62006
G1 X106.101 Y69.075 E55.6422
G1 X106.137 Y68.789 E55.66137
G1 X106.277 Y68.474 E55.6843
G1 X106.47 Y68.233 E55.70484
G1 X106.718 Y68.051 E55.7253
G1 X106.992 Y67.936 E55.74507
G1 X107.3 Y67.9 E55.7657
G1 X107.581 Y67.933 E55.78452
G1 X107.879 Y68.051 E55.80584
G1 X108.15 Y68.247 E55.82809
G1 X108.35 Y68.521 E55.85065
G1 X108.463 Y68.816 E55.87167
G1 X108.503 Y69.102 E55.89088
G1 X108.45 Y69.432 E55.91311
G1 X108.35 Y69.676 E55.93065
G1 X108.151 Y69.951 E55.95323
G1 X107.876 Y70.15 E55.97581
G1 X107.584 Y70.263 E55.99664
G1 X107.3 Y70.3 E56.01569
G1 F2700 E51.01569
G0 F6000 X107.262 Y70.598
G0 X107.755 Y70.782
G0 X107.26 Y70.85
G0 X115.128 Y71.172
G0 X115.403 Y71.258
G0 X137.214 Y70.37
G0 X138.467 Y70.303
G1 F2700 E56.01569
G1 F1200 X138.157 Y70.257 E56.03654
G1 X137.858 Y70.132 E56.05809
G1 X137.63 Y69.957 E56.07721
G1 X137.436 Y69.71 E56.09811
G1 X137.307 Y69.411 E56.11977
G1 X137.269 Y69.125 E56.13896
G1 X137.304 Y68.794 E56.1611
G1 X137.42 Y68.521 E56.18083
G1 X137.617 Y68.248 E56.20323
G1 X137.892 Y68.046 E56.22592
G1 X138.136 Y67.946 E56.24347
G1 X138.468 Y67.9 E56.26576
G1 X138.8 Y67.946 E56.28806
G1 X139.044 Y68.046 E56.3056
G1 X139.319 Y68.249 E56.32834
G1 X139.517 Y68.517 E56.3505
G1 X139.632 Y68.786 E56.36996
G1 X139.668 Y69.1 E56.39098
G1 X139.634 Y69.391 E56.41047
G1 X139.517 Y69.679 E56.43115
G1 X139.316 Y69.955 E56.45386
G1 X139.044 Y70.15 E56.47613
G1 X138.752 Y70.263 E56.49696
G1 X138.467 Y70.303 E56.5161
G1 F2700 E51.5161
G0 F6000 X138.532 Y70.799
G0 X142.101 Y70.886
G0 X143.697 Y167.085
;TYPE:SKIN
G1 F2700 E56.5161
G1 F1200 X143.697 Y166.574 E56.55009
G1 X143.508 Y166.018 E56.58915
G1 X143.182 Y165.745 E56.61744
G1 X142.871 Y165.64 E56.63928
G1 X87.06 Y165.64 E60.35184
G1 X87.06 Y66.807 E66.92624
G1 X87.226 Y66.526 E66.94795
G1 X87.507 Y66.36 E66.96966
G1 X141.481 Y66.36 E70.56002
G1 X141.769 Y66.526 E70.58213
G1 X141.911 Y66.775 E70.6012
G1 X141.94 Y66.968 E70.61418
G1 X141.94 Y141.572 E75.57686
G1 X141.985 Y141.797 E75.59213
G1 X146.47 Y153.082 E76.39992
G1 F989.7 X146.578 Y153.582 E76.44118
G1 X146.17 Y153.189 E76.48687
G1 F1200 X145.81 Y152.913 E76.51704
G1 X145.313 Y152.692 E76.55323
G1 X144.825 Y152.633 E76.58592
G1 X144.292 Y152.692 E76.6216
G1 X143.806 Y152.897 E76.65668
G1 X143.409 Y153.209 E76.69027
G1 X143.097 Y153.614 E76.72428
G1 X142.903 Y154.071 E76.7573
G1 X142.836 Y154.582 E76.79159
G1 X142.896 Y155.094 E76.82588
G1 X143.105 Y155.579 E76.86101
G1 X143.401 Y155.989 E76.89465
G1 X143.837 Y156.305 E76.93047
G1 X144.261 Y156.485 E76.96111
G1 X144.796 Y156.571 E76.99715
G1 X145.284 Y156.503 E77.02993
G1 X145.757 Y156.313 E77.06384
G1 X146.2 Y155.987 E77.10042
G1 X146.499 Y155.574 E77.13434
G1 X146.694 Y155.113 E77.16764
G1 X146.758 Y154.639 E77.19945
G1 F985.6 X146.789 Y154.117 E77.2418
G1 X147.034 Y154.502 E77.27876
G1 F1200 X147.435 Y155.68 E77.36154
G1 X147.711 Y156.822 E77.43969
G1 X147.876 Y157.968 E77.51671
G1 X147.94 Y159.19 E77.59811
G1 X147.94 Y161.268 E77.73634
G1 X147.892 Y161.673 E77.76347
G1 X147.775 Y161.995 E77.78626
G1 X147.553 Y162.347 E77.81394
G1 X143.697 Y167.085 E78.2203
G1 F2700 E73.2203
G0 F6000 X143.901 Y167.252
G0 X147.686 Y162.439
G0 X146.345 Y155.484
G0 X146.789 Y154.117
G1 F2700 E78.2203
G1 F839.2 X146.578 Y153.582 E78.27501
G1 F2700 E73.27501
G0 F6000 X146.284 Y153.759
G0 X145.654 Y153.445
G0 X144.339 Y152.871
G0 X105.575 Y91.367
G0 X103.991 Y92.5
G1 F2700 E78.27501
G1 F1200 X105.658 Y91.525 E78.40347
G1 X107.18 Y90.452 E78.52734
G1 X108.608 Y89.248 E78.65159
G1 X109.914 Y87.942 E78.77445
G1 X111.093 Y86.554 E78.8956
G1 X112.16 Y85.052 E79.01815
G1 X113.105 Y83.467 E79.14091
G1 X113.924 Y81.776 E79.26589
G1 X114.559 Y80.124 E79.38362
G1 X115.085 Y78.283 E79.51099
G1 X115.44 Y76.549 E79.62872
G1 X115.651 Y74.703 E79.75232
G1 X115.659 Y71.501 E79.96532
G1 X115.564 Y71.179 E79.98765
G1 X115.331 Y70.876 E80.01308
G1 X114.892 Y70.64 E80.04623
G1 X108.499 Y70.636 E80.4715
G1 X108.708 Y70.47 E80.48925
G1 X109.009 Y70.075 E80.52228
G1 X109.199 Y69.586 E80.55718
G1 X109.271 Y69.093 E80.59032
G1 X109.203 Y68.615 E80.62244
G1 X109.014 Y68.136 E80.6567
G1 X108.689 Y67.698 E80.69298
G1 X108.255 Y67.383 E80.72865
G1 X107.807 Y67.193 E80.76102
G1 X107.325 Y67.133 E80.79333
G1 X106.801 Y67.194 E80.82842
G1 X106.33 Y67.387 E80.86228
G1 X105.905 Y67.705 E80.89759
G1 X105.587 Y68.13 E80.9329
G1 X105.392 Y68.591 E80.9662
G1 X105.333 Y69.075 E80.99863
G1 X105.392 Y69.608 E81.0343
G1 X105.588 Y70.06 E81.06707
G1 X105.887 Y70.472 E81.10094
G1 X106.091 Y70.635 E81.11831
G1 X93.092 Y70.642 E81.983
G1 X92.645 Y70.895 E82.01717
G1 X92.437 Y71.179 E82.04059
G1 X92.34 Y71.459 E82.0603
G1 X92.34 Y91.734 E83.409
G1 X92.425 Y92.01 E83.42821
G1 X92.653 Y92.308 E83.45317
G1 X92.929 Y92.485 E83.47498
G1 X93.183 Y92.551 E83.49244
G1 X103.688 Y92.56 E84.19123
G1 X103.991 Y92.5 E84.21178
G1 F2700 E79.21178
G0 F6000 X103.9 Y92.261
G0 X109.797 Y87.809
G0 X137.214 Y70.37
G0 X137.981 Y70.998
G1 F2700 E84.21178
G1 F1200 X138.524 Y71.059 E84.24813
G1 X138.952 Y70.999 E84.27687
G1 X139.424 Y70.814 E84.3106
G1 X139.855 Y70.5 E84.34607
G1 X140.181 Y70.058 E84.3826
G1 X140.374 Y69.587 E84.41646
G1 X140.428 Y69.1 E84.44906
G1 X140.372 Y68.59 E84.48319
G1 X140.151 Y68.085 E84.51986
G1 X139.855 Y67.701 E84.55211
G1 X139.47 Y67.405 E84.58441
G1 X138.972 Y67.192 E84.62044
G1 X138.493 Y67.133 E84.65255
G1 X137.973 Y67.194 E84.68737
G1 X137.512 Y67.378 E84.72039
G1 X137.073 Y67.704 E84.75677
G1 X136.756 Y68.137 E84.79246
G1 X136.56 Y68.593 E84.82548
G1 X136.501 Y69.122 E84.86089
G1 X136.563 Y69.59 E84.89229
G1 X136.777 Y70.099 E84.92902
G1 X137.09 Y70.498 E84.96275
G1 X137.491 Y70.805 E84.99635
G1 X137.981 Y70.998 E85.03138
G1 F2700 E80.03138
G0 F6000 X137.655 Y70.595
G0 X138.842 Y70.494
G0 X139.192 Y70.349
G0 X139.49 Y70.12
G0 X139.72 Y69.82
G0 X139.863 Y69.473
G0 X139.904 Y69.171
G0 X139.731 Y67.833
G0 X139.731 Y66.2
G0 X141.23 Y66.56
G1 F2700 E85.03138
G1 F1200 X141.741 Y67.07 E85.0794
G0 F6000 X141.741 Y67.636
G1 F1200 X140.665 Y66.56 E85.18063
G0 F6000 X140.099 Y66.56
G1 F1200 X141.741 Y68.202 E85.3351
G0 F6000 X141.741 Y68.768
G1 F1200 X139.533 Y66.56 E85.54281
G0 F6000 X138.968 Y66.56
G1 F1200 X139.862 Y67.454 E85.62691
G0 F6000 X140.103 Y67.695
G1 F1200 X141.741 Y69.333 E85.78101
G0 F6000 X141.741 Y69.899
G1 F1200 X140.59 Y68.748 E85.88929
G0 F6000 X140.603 Y69.326
G1 F1200 X141.741 Y70.465 E85.99639
G0 F6000 X141.741 Y71.03
G1 F1200 X140.507 Y69.796 E86.11248
G0 F6000 X140.337 Y70.192
G1 F1200 X141.741 Y71.596 E86.24456
G0 F6000 X141.741 Y72.162
G1 F1200 X140.094 Y70.515 E86.3995
G0 F6000 X139.803 Y70.789
G1 F1200 X141.741 Y72.727 E86.58181
G0 F6000 X141.741 Y73.293
G1 F1200 X139.463 Y71.015 E86.79611
G0 F6000 X139.06 Y71.177
G1 F1200 X141.741 Y73.859 E87.04837
G0 F6000 X141.741 Y74.424
G1 F1200 X138.571 Y71.254 E87.34658
