;FLAVOR:Marlin
;TIME:1562
;Filament used: 0.895396m
;Layer height: 0.2
;MINX:150.565
;MINY:86.593
;MINZ:0.2
;MAXX:174.632
;MAXY:148.403
;MAXZ:3.4
;TARGET_MACHINE.NAME:Creality Ender-3
;Generated with Cura_SteamEngine 5.7.2
M140 S65
M105
M190 S65
M104 S205
M105
M109 S205
M82 ;absolute extrusion mode
; Ender 3 Custom Start G-code
G92 E0 ; Reset Extruder
G28 ; Home all axes
G1 Z2.0 F3000 ; Move Z Axis up little to prevent scratching of Heat Bed
G1 X0.1 Y20 Z0.3 F5000.0 ; Move to start position
G1 X0.1 Y200.0 Z0.3 F1500.0 E15 ; Draw the first line
G1 X0.4 Y200.0 Z0.3 F5000.0 ; Move to side a little
G1 X0.4 Y20 Z0.3 F1500.0 E30 ; Draw the second line
G92 E0 ; Reset Extruder
G1 Z2.0 F3000 ; Move Z Axis up little to prevent scratching of Heat Bed
G1 X5 Y20 Z0.3 F5000.0 ; Move over to prevent blob squish
G92 E0
G92 E0
G1 F2700 E-5
;LAYER_COUNT:17
;LAYER:0
M107
;MESH:CE3E3V2_tmpg9pryy8ttoothpasteSqueezer01.stl(1)
G0 F6000 X163.519 Y145.402 Z0.2
;TYPE:WALL-INNER
G1 F2700 E0
G1 F900 X163.175 Y145.107 E0.01507
G1 X162.943 Y144.818 E0.0274
G1 X162.766 Y144.476 E0.04021
G1 X162.664 Y144.136 E0.05201
G1 X162.626 Y143.801 E0.06323
G1 X162.624 Y91.046 E1.81787
G1 X162.745 Y90.521 E1.83578
G1 X163.048 Y90.004 E1.85572
G1 X163.413 Y89.679 E1.87197
G1 X163.734 Y89.488 E1.88439
G1 X164.179 Y89.323 E1.90018
G1 X164.604 Y89.304 E1.91433
G1 X164.984 Y89.339 E1.92702
G1 X165.38 Y89.479 E1.94099
G1 X165.666 Y89.64 E1.95191
G1 X165.982 Y89.894 E1.96539
G1 X166.254 Y90.264 E1.98067
G1 X166.425 Y90.659 E1.99498
G1 X166.511 Y91.101 E2.00996
G1 X166.511 Y143.891 E3.76576
G1 X166.449 Y144.327 E3.78041
G1 X166.213 Y144.803 E3.79808
G1 X165.892 Y145.194 E3.81491
G1 X165.526 Y145.445 E3.82967
G1 X165.219 Y145.584 E3.84087
G1 X164.737 Y145.686 E3.85726
G1 X164.41 Y145.688 E3.86814
G1 X163.928 Y145.593 E3.88448
G1 X163.519 Y145.402 E3.89949
G1 F2700 E-1.10051
G0 F6000 X163.475 Y145.5
G0 X163.612 Y145.648
G0 X162.8 Y147.131
G0 X162.824 Y147.35
G1 F2700 E3.89949
G1 F900 X163.109 Y147.478 E3.90988
G1 X163.369 Y147.571 E3.91907
G1 X163.643 Y147.646 E3.92851
G1 X163.924 Y147.698 E3.93802
G1 X164.212 Y147.734 E3.94767
G1 X164.489 Y147.751 E3.9569
G1 X164.76 Y147.748 E3.96592
G1 X165.015 Y147.727 E3.97443
G1 X165.3 Y147.685 E3.98401
G1 X165.574 Y147.626 E3.99333
G1 X165.862 Y147.539 E4.00334
G1 X166.138 Y147.435 E4.01315
G1 X166.411 Y147.306 E4.02319
G1 X166.679 Y147.153 E4.03345
G1 X166.937 Y146.983 E4.04373
G1 X167.171 Y146.793 E4.05376
G1 X167.406 Y146.576 E4.06439
G1 X167.55 Y146.425 E4.07133
G1 X167.728 Y146.216 E4.08047
G1 X168.031 Y145.765 E4.09854
G1 X168.202 Y145.435 E4.1109
G1 X168.356 Y145.058 E4.12444
G1 X168.46 Y144.701 E4.13681
G1 X168.537 Y144.317 E4.14984
G1 X168.568 Y143.977 E4.16119
G1 X168.588 Y143.096 E4.1905
G1 X168.687 Y141.386 E4.24747
G1 X168.833 Y140.064 E4.29171
G1 X168.924 Y139.42 E4.31334
G1 X169.136 Y138.164 E4.35571
G1 X169.266 Y137.525 E4.3774
G1 X169.439 Y136.749 E4.40384
G1 X169.735 Y135.606 E4.44311
G1 X169.918 Y134.967 E4.46522
G1 X170.152 Y134.209 E4.4916
G1 X170.757 Y132.435 E4.55394
G1 X171.27 Y130.801 E4.61091
G1 X171.642 Y129.56 E4.654
G1 X172.098 Y127.916 E4.71074
G1 X172.513 Y126.299 E4.76626
G1 X172.716 Y125.457 E4.79507
G1 X173.085 Y123.816 E4.85101
G1 X173.295 Y122.825 E4.88471
G1 X173.573 Y121.381 E4.93362
G1 X173.778 Y120.171 E4.97444
G1 X173.879 Y119.389 E5.00066
G1 X173.913 Y119.024 E5.01285
G1 X173.964 Y118.246 E5.03879
G1 X173.979 Y117.416 E5.0664
G1 X173.964 Y116.746 E5.08869
G1 X173.914 Y115.976 E5.11435
G1 X173.832 Y115.201 E5.14027
G1 X173.775 Y114.79 E5.15407
G1 X173.488 Y113.175 E5.20863
G1 X173.247 Y111.952 E5.25009
G1 X172.865 Y110.169 E5.31074
G1 X172.504 Y108.673 E5.36192
G1 X172.088 Y107.047 E5.41774
G1 X171.624 Y105.378 E5.47536
G1 X171.133 Y103.746 E5.53204
G1 X170.875 Y102.927 E5.5606
G1 X170.082 Y100.572 E5.64325
G1 X169.913 Y100.021 E5.66242
G1 X169.622 Y98.973 E5.6986
G1 X169.458 Y98.328 E5.72073
G1 X169.264 Y97.461 E5.75028
G1 X169.091 Y96.621 E5.77881
G1 X168.916 Y95.544 E5.8151
G1 X168.758 Y94.296 E5.85694
G1 X168.657 Y93.193 E5.89378
G1 X168.6 Y92.257 E5.92497
G1 X168.565 Y90.953 E5.96835
G1 X168.537 Y90.706 E5.97662
G1 X168.446 Y90.233 E5.99264
G1 X168.379 Y90.008 E6.00045
G1 X168.273 Y89.729 E6.01038
G1 X168.178 Y89.512 E6.01826
G1 X168.069 Y89.304 E6.02607
G1 X167.889 Y89.008 E6.03759
G1 X167.625 Y88.654 E6.05228
G1 X167.332 Y88.351 E6.0663
G1 X167.005 Y88.061 E6.08083
G1 X166.641 Y87.819 E6.09537
G1 X166.362 Y87.667 E6.10594
G1 X166.047 Y87.527 E6.1174
G1 X165.725 Y87.415 E6.12874
G1 X165.407 Y87.331 E6.13968
G1 X165.036 Y87.266 E6.15221
G1 X164.502 Y87.245 E6.16998
G1 X164.131 Y87.262 E6.18234
G1 X163.739 Y87.332 E6.19558
G1 X163.434 Y87.409 E6.20604
G1 X163.123 Y87.513 E6.21695
G1 X162.825 Y87.642 E6.22775
G1 X162.535 Y87.798 E6.2387
G1 X162.245 Y87.986 E6.2502
G1 X161.981 Y88.19 E6.26129
G1 X161.734 Y88.42 E6.27252
G1 X161.49 Y88.685 E6.2845
G1 X161.295 Y88.935 E6.29505
G1 X161.108 Y89.229 E6.30664
G1 X160.975 Y89.481 E6.31611
G1 X160.822 Y89.829 E6.32876
G1 X160.697 Y90.215 E6.34225
G1 X160.612 Y90.616 E6.35588
G1 X160.568 Y90.974 E6.36788
G1 X160.56 Y91.595 E6.38854
G1 X160.536 Y92.262 E6.41074
G1 X160.478 Y93.296 E6.44518
G1 X160.404 Y94.079 E6.47134
G1 X160.302 Y94.945 E6.50034
G1 X160.114 Y96.205 E6.54271
G1 X159.871 Y97.472 E6.58562
G1 X159.702 Y98.246 E6.61197
G1 X159.404 Y99.398 E6.65155
G1 X159.022 Y100.67 E6.69572
G1 X158.43 Y102.45 E6.75811
G1 X158.258 Y102.821 E6.77172
G1 X157.989 Y103.184 E6.78674
G1 X157.679 Y103.459 E6.80053
G1 X157.251 Y103.7 E6.81686
G1 X156.869 Y103.824 E6.83022
G1 X155.445 Y103.964 E6.87781
G1 X154.784 Y104.06 E6.90003
G1 X154.126 Y104.186 E6.92231
G1 X153.45 Y104.365 E6.94557
G1 X153.139 Y104.461 E6.95639
G1 X152.836 Y104.571 E6.96712
G1 X152.545 Y104.695 E6.97764
G1 X152.16 Y104.895 E6.99207
G1 X151.903 Y105.064 E7.0023
G1 X151.708 Y105.218 E7.01056
G1 X151.564 Y105.361 E7.01731
G1 X151.437 Y105.52 E7.02408
G1 X151.284 Y105.785 E7.03426
G1 X151.23 Y106.076 E7.0441
G1 X151.218 Y106.372 E7.05395
G1 X151.308 Y106.746 E7.06675
G1 X151.408 Y107.02 E7.07645
G1 X151.582 Y107.403 E7.09044
G1 X151.761 Y107.691 E7.10172
G1 X151.986 Y108.016 E7.11487
G1 X152.17 Y108.262 E7.12508
G1 X152.631 Y108.807 E7.14883
G1 X152.84 Y109.026 E7.15889
G1 X153.399 Y109.574 E7.18493
G1 X153.952 Y110.072 E7.20968
G1 X154.838 Y110.798 E7.24778
G1 X155.589 Y111.383 E7.27944
G1 X155.861 Y111.655 E7.29224
G1 X156.092 Y112.06 E7.30774
G1 X156.255 Y112.512 E7.32373
G1 X156.3 Y112.973 E7.33913
G1 X156.239 Y113.585 E7.35959
G1 X156.163 Y114.817 E7.40064
G1 X156.116 Y115.88 E7.43603
G1 X156.092 Y117.002 E7.47336
G1 X156.092 Y118.076 E7.50908
G1 X156.117 Y119.15 E7.54481
G1 X156.161 Y120.164 E7.57857
G1 X156.288 Y122.052 E7.64151
G1 X156.268 Y122.388 E7.6527
G1 X156.138 Y122.869 E7.66927
G1 X155.812 Y123.389 E7.68969
G1 X155.532 Y123.67 E7.70288
G1 X155.024 Y124.057 E7.72412
G1 X154.285 Y124.641 E7.75545
G1 X153.557 Y125.271 E7.78747
G1 X153.207 Y125.603 E7.80351
G1 X152.865 Y125.944 E7.81958
G1 X152.538 Y126.298 E7.83561
G1 X152.165 Y126.74 E7.85484
G1 X151.834 Y127.193 E7.8735
G1 X151.693 Y127.417 E7.88231
G1 X151.552 Y127.673 E7.89203
G1 X151.371 Y128.062 E7.9063
G1 X151.3 Y128.277 E7.91383
G1 X151.235 Y128.566 E7.92368
G1 X151.226 Y128.894 E7.93459
G1 X151.283 Y129.15 E7.94332
G1 X151.388 Y129.405 E7.95249
G1 X151.554 Y129.622 E7.96158
G1 X151.717 Y129.787 E7.96929
G1 X151.893 Y129.936 E7.97696
G1 X152.239 Y130.148 E7.99046
G1 X152.48 Y130.272 E7.99947
G1 X152.865 Y130.437 E8.0134
G1 X153.178 Y130.55 E8.02447
G1 X153.827 Y130.737 E8.04693
G1 X154.169 Y130.816 E8.05861
G1 X154.77 Y130.932 E8.07897
G1 X155.362 Y131.02 E8.09887
G1 X156.027 Y131.094 E8.12113
G1 X156.661 Y131.15 E8.1423
G1 X157.042 Y131.228 E8.15523
G1 X157.464 Y131.396 E8.17034
G1 X157.732 Y131.58 E8.18115
G1 X158.002 Y131.82 E8.19317
G1 X158.246 Y132.16 E8.20709
G1 X158.406 Y132.477 E8.2189
G1 X159.09 Y134.525 E8.29071
G1 X159.518 Y136.025 E8.34259
G1 X159.678 Y136.659 E8.36434
G1 X159.877 Y137.537 E8.39428
G1 X160.044 Y138.371 E8.42257
G1 X160.118 Y138.806 E8.43725
G1 X160.308 Y140.074 E8.47989
G1 X160.382 Y140.705 E8.50103
G1 X160.492 Y141.909 E8.54124
G1 X160.54 Y142.732 E8.56866
G1 X160.579 Y144.068 E8.61311
G1 X160.61 Y144.338 E8.62215
G1 X160.659 Y144.597 E8.63092
G1 X160.745 Y144.928 E8.64229
G1 X160.819 Y145.155 E8.65023
G1 X160.934 Y145.428 E8.66009
G1 X161.068 Y145.694 E8.66999
G1 X161.236 Y145.966 E8.68063
G1 X161.452 Y146.266 E8.69292
G1 X161.717 Y146.559 E8.70606
G1 X161.94 Y146.768 E8.71623
G1 X162.17 Y146.955 E8.72609
G1 X162.431 Y147.136 E8.73665
G1 X162.824 Y147.35 E8.75153
G0 F6000 X162.646 Y147.708
;TYPE:WALL-OUTER
G1 F900 X162.959 Y147.85 E8.76296
G1 X163.249 Y147.953 E8.7732
G1 X163.553 Y148.036 E8.78368
G1 X163.863 Y148.094 E8.79417
G1 X164.175 Y148.132 E8.80463
G1 X164.478 Y148.151 E8.81472
G1 X164.778 Y148.148 E8.8247
G1 X165.061 Y148.125 E8.83414
G1 X165.372 Y148.079 E8.8446
G1 X165.674 Y148.014 E8.85488
G1 X165.991 Y147.918 E8.86589
G1 X166.294 Y147.803 E8.87667
G1 X166.595 Y147.662 E8.88773
G1 X166.89 Y147.493 E8.89903
G1 X167.173 Y147.306 E8.91032
G1 X167.433 Y147.096 E8.92143
G1 X167.687 Y146.861 E8.93294
G1 X167.847 Y146.693 E8.94066
G1 X168.048 Y146.458 E8.95094
G1 X168.375 Y145.969 E8.97051
G1 X168.566 Y145.603 E8.98424
G1 X168.734 Y145.19 E8.99907
G1 X168.849 Y144.796 E9.01272
G1 X168.933 Y144.375 E9.027
G1 X168.968 Y144 E9.03953
G1 X168.988 Y143.114 E9.069
G1 X169.012 Y142.591 E9.08642
G1 X169.085 Y141.43 E9.12511
G1 X169.229 Y140.12 E9.16894
G1 X169.318 Y139.486 E9.19023
G1 X169.528 Y138.244 E9.23213
G1 X169.656 Y137.612 E9.25358
G1 X169.826 Y136.849 E9.27958
G1 X170.119 Y135.716 E9.3185
G1 X170.3 Y135.085 E9.34033
G1 X170.53 Y134.339 E9.3663
G1 X171.139 Y132.555 E9.429
G1 X171.653 Y130.916 E9.48613
G1 X172.027 Y129.668 E9.52946
G1 X172.486 Y128.016 E9.58649
G1 X172.906 Y126.373 E9.64289
G1 X173.101 Y125.57 E9.67037
G1 X173.476 Y123.899 E9.72733
G1 X173.687 Y122.904 E9.76116
G1 X173.967 Y121.452 E9.81035
G1 X174.174 Y120.23 E9.85157
G1 X174.277 Y119.433 E9.8783
G1 X174.312 Y119.056 E9.89089
G1 X174.364 Y118.263 E9.91732
G1 X174.379 Y117.408 E9.94577
G1 X174.364 Y116.729 E9.96835
G1 X174.305 Y115.861 E9.99729
G1 X174.229 Y115.153 E10.02097
G1 X174.158 Y114.654 E10.03774
G1 X173.88 Y113.098 E10.09031
G1 X173.638 Y111.868 E10.13201
G1 X173.254 Y110.075 E10.19299
G1 X172.892 Y108.574 E10.24435
G1 X172.483 Y106.975 E10.29924
G1 X172.025 Y105.323 E10.35626
G1 X171.515 Y103.626 E10.4152
G1 X171.27 Y102.847 E10.44236
G1 X170.464 Y100.455 E10.52631
G1 X170.299 Y99.914 E10.54512
G1 X170.01 Y98.874 E10.58102
G1 X169.848 Y98.24 E10.60279
G1 X169.656 Y97.381 E10.63206
G1 X169.486 Y96.557 E10.66005
G1 X169.313 Y95.494 E10.69587
G1 X169.156 Y94.259 E10.73728
G1 X169.056 Y93.169 E10.77368
G1 X169 Y92.246 E10.80444
G1 X168.964 Y90.926 E10.84836
G1 X168.943 Y90.723 E10.85514
G1 X168.885 Y90.37 E10.86704
G1 X168.834 Y90.134 E10.87507
G1 X168.758 Y89.88 E10.88389
G1 X168.654 Y89.603 E10.89373
G1 X168.539 Y89.339 E10.90331
G1 X168.417 Y89.107 E10.91203
G1 X168.221 Y88.784 E10.92459
G1 X167.931 Y88.394 E10.94076
G1 X167.609 Y88.061 E10.95617
G1 X167.249 Y87.743 E10.97214
G1 X166.848 Y87.476 E10.98817
G1 X166.539 Y87.308 E10.99986
G1 X166.194 Y87.155 E11.01242
G1 X165.841 Y87.032 E11.02485
G1 X165.493 Y86.94 E11.03682
G1 X165.078 Y86.868 E11.05083
G1 X164.501 Y86.845 E11.07004
G1 X164.087 Y86.864 E11.08382
G1 X163.655 Y86.94 E11.09841
G1 X163.321 Y87.025 E11.10987
G1 X162.98 Y87.139 E11.12183
G1 X162.651 Y87.281 E11.13375
G1 X162.331 Y87.453 E11.14583
G1 X162.013 Y87.66 E11.15845
G1 X161.722 Y87.885 E11.17069
G1 X161.45 Y88.138 E11.18304
G1 X161.185 Y88.426 E11.19606
G1 X160.968 Y88.704 E11.20779
G1 X160.762 Y89.029 E11.22059
G1 X160.597 Y89.343 E11.23239
G1 X160.448 Y89.687 E11.24485
G1 X160.31 Y90.112 E11.25972
G1 X160.218 Y90.55 E11.2746
G1 X160.168 Y90.946 E11.28788
G1 X160.16 Y91.58 E11.30897
G1 X160.136 Y92.24 E11.33093
G1 X160.08 Y93.259 E11.36488
G1 X160.007 Y94.032 E11.3907
G1 X159.906 Y94.886 E11.4193
G1 X159.721 Y96.13 E11.46113
G1 X159.48 Y97.387 E11.5037
G1 X159.314 Y98.146 E11.52954
G1 X159.02 Y99.285 E11.56867
G1 X158.642 Y100.544 E11.61239
G1 X158.041 Y102.346 E11.67557
G1 X157.901 Y102.632 E11.68616
G1 X157.705 Y102.896 E11.6971
G1 X157.427 Y103.143 E11.70947
G1 X157.07 Y103.339 E11.72301
G1 X156.768 Y103.432 E11.73352
G1 X155.397 Y103.567 E11.77934
G1 X154.718 Y103.666 E11.80216
G1 X154.037 Y103.796 E11.82522
G1 X153.34 Y103.981 E11.84921
G1 X153.012 Y104.082 E11.86062
G1 X152.69 Y104.199 E11.87202
G1 X152.374 Y104.333 E11.88343
G1 X151.958 Y104.549 E11.89902
G1 X151.669 Y104.739 E11.91053
G1 X151.442 Y104.918 E11.92014
G1 X151.266 Y105.094 E11.92842
G1 X151.106 Y105.294 E11.93694
G1 X150.974 Y105.523 E11.94573
G1 X150.882 Y105.763 E11.95428
G1 X150.832 Y106.031 E11.96335
G1 X150.821 Y106.293 E11.97207
G1 X150.846 Y106.534 E11.98013
G1 X150.924 Y106.862 E11.99134
G1 X151.038 Y107.172 E12.00233
G1 X151.229 Y107.593 E12.0177
G1 X151.459 Y107.961 E12.03214
G1 X151.857 Y108.511 E12.05472
G1 X152.333 Y109.074 E12.07924
G1 X152.555 Y109.307 E12.08994
G1 X153.125 Y109.866 E12.1165
G1 X153.691 Y110.376 E12.14184
G1 X154.589 Y111.111 E12.18043
G1 X155.306 Y111.666 E12.21059
G1 X155.522 Y111.882 E12.22075
G1 X155.733 Y112.244 E12.23469
G1 X155.864 Y112.624 E12.24806
G1 X155.896 Y112.992 E12.26034
G1 X155.84 Y113.553 E12.27909
G1 X155.763 Y114.799 E12.32061
G1 X155.716 Y115.867 E12.35617
G1 X155.692 Y117.002 E12.39393
G1 X155.692 Y118.085 E12.42995
G1 X155.717 Y119.167 E12.46595
G1 X155.767 Y120.274 E12.5028
G1 X155.888 Y122.034 E12.56148
G1 X155.874 Y122.319 E12.57097
G1 X155.759 Y122.727 E12.58507
G1 X155.485 Y123.151 E12.60186
G1 X155.29 Y123.352 E12.61117
G1 X154.776 Y123.743 E12.63265
G1 X154.031 Y124.331 E12.66422
G1 X153.287 Y124.976 E12.69697
G1 X152.928 Y125.316 E12.71342
G1 X152.533 Y125.713 E12.73204
G1 X152.238 Y126.033 E12.74652
G1 X151.85 Y126.492 E12.76651
G1 X151.502 Y126.969 E12.78615
G1 X151.349 Y127.214 E12.79575
G1 X151.195 Y127.491 E12.8063
G1 X150.999 Y127.914 E12.8218
G1 X150.914 Y128.17 E12.83077
G1 X150.836 Y128.517 E12.8426
G1 X150.825 Y128.932 E12.85641
G1 X150.9 Y129.271 E12.86796
G1 X151.039 Y129.607 E12.88005
G1 X151.252 Y129.884 E12.89167
G1 X151.445 Y130.081 E12.90085
G1 X151.658 Y130.261 E12.91012
G1 X152.043 Y130.497 E12.92514
G1 X152.31 Y130.634 E12.93512
G1 X152.718 Y130.809 E12.94989
G1 X153.052 Y130.93 E12.9617
G1 X153.729 Y131.125 E12.98514
G1 X154.086 Y131.208 E12.99733
G1 X154.702 Y131.326 E13.01819
G1 X155.31 Y131.417 E13.03863
G1 X155.944 Y131.488 E13.05985
G1 X156.626 Y131.548 E13.08262
G1 X156.948 Y131.618 E13.09358
G1 X157.29 Y131.762 E13.10593
G1 X157.506 Y131.91 E13.11464
G1 X157.713 Y132.104 E13.12407
G1 X157.893 Y132.349 E13.13418
G1 X158.026 Y132.604 E13.14375
G1 X158.713 Y134.661 E13.21588
G1 X159.13 Y136.123 E13.26644
G1 X159.288 Y136.747 E13.28785
G1 X159.485 Y137.616 E13.31749
G1 X159.65 Y138.438 E13.34538
G1 X159.911 Y140.12 E13.40199
G1 X159.984 Y140.741 E13.42279
G1 X160.092 Y141.932 E13.46256
G1 X160.14 Y142.762 E13.49021
G1 X160.18 Y144.097 E13.53464
G1 X160.214 Y144.398 E13.54471
G1 X160.279 Y144.731 E13.55599
G1 X160.353 Y145.011 E13.56563
G1 X160.444 Y145.294 E13.57551
G1 X160.57 Y145.596 E13.5864
G1 X160.719 Y145.89 E13.59736
G1 X160.903 Y146.188 E13.60901
G1 X161.14 Y146.518 E13.62252
G1 X161.431 Y146.839 E13.63693
G1 X161.676 Y147.069 E13.64811
G1 X161.929 Y147.275 E13.65896
G1 X162.221 Y147.477 E13.67077
G1 X162.646 Y147.708 E13.68686
G1 F2700 E8.68686
G0 F6000 X162.889 Y147.269
