;FLAVOR:Marlin
;TIME:5629
;Filament used: 3.59297m
;Layer height: 0.2
;MINX:86.3
;MINY:64.735
;MINZ:0.2
;MAXX:148.7
;MAXY:169.4
;MAXZ:13.2
;TARGET_MACHINE.NAME:Creality Ender-3
;Generated with Cura_SteamEngine 5.7.2
M140 S65
M105
M190 S65
M104 S205
M105
M109 S205
M82 ;absolute extrusion mode
; Ender 3 Custom Start G-code
G92 E0 ; Reset Extruder
G28 ; Home all axes
G1 Z2.0 F3000 ; Move Z Axis up little to prevent scratching of Heat Bed
G1 X0.1 Y20 Z0.3 F5000.0 ; Move to start position
G1 X0.1 Y200.0 Z0.3 F1500.0 E15 ; Draw the first line
G1 X0.4 Y200.0 Z0.3 F5000.0 ; Move to side a little
G1 X0.4 Y20 Z0.3 F1500.0 E30 ; Draw the second line
G92 E0 ; Reset Extruder
G1 Z2.0 F3000 ; Move Z Axis up little to prevent scratching of Heat Bed
G1 X5 Y20 Z0.3 F5000.0 ; Move over to prevent blob squish
G92 E0
G92 E0
G1 F2700 E-5
;LAYER_COUNT:66
;LAYER:0
M107
;MESH:lid_grey.stl
G0 F6000 X92.904 Y168.792 Z0.2
;TYPE:WALL-INNER
G1 F2700 E0
G1 F900 X148.088 Y168.791 E1.83543
G1 X148.091 Y66.942 E5.22294
G1 X148.062 Y66.711 E5.23068
G1 X148 Y66.561 E5.23608
G1 X147.738 Y66.298 E5.24843
G1 X147.585 Y66.237 E5.25391
G1 X147.35 Y66.205 E5.26179
G1 X93.642 Y66.204 E7.04813
G1 X93.411 Y66.234 E7.05588
G1 X93.261 Y66.296 E7.06128
G1 X92.998 Y66.558 E7.07362
G1 X92.937 Y66.711 E7.0791
G1 X92.904 Y66.946 E7.08699
G1 X92.902 Y141.658 E9.57193
G1 X87.811 Y154.475 E10.03062
G1 X87.44 Y155.531 E10.06785
G1 X87.127 Y156.812 E10.11171
G1 X86.943 Y158.188 E10.15788
G1 X86.904 Y159.2 E10.19156
G1 X86.904 Y161.303 E10.26151
G1 X86.916 Y161.522 E10.2688
G1 X87.017 Y161.923 E10.28256
G1 X87.211 Y162.289 E10.29634
G1 X87.478 Y162.595 E10.30984
G1 X87.849 Y162.848 E10.32478
G1 X92.615 Y165.341 E10.50367
G1 X92.793 Y165.508 E10.51179
G1 X92.86 Y165.635 E10.51657
G1 X92.9 Y165.851 E10.52387
G1 X92.904 Y168.792 E10.62169
G0 F6000 X92.579 Y169.192
;TYPE:WALL-OUTER
G1 F900 X148.423 Y169.192 E12.47907
G1 X148.488 Y169.089 E12.48312
G1 X148.491 Y66.917 E15.88138
G1 X148.452 Y66.608 E15.89173
G1 X148.349 Y66.358 E15.90073
G1 X148.169 Y66.127 E15.91047
G1 X147.939 Y65.948 E15.92016
G1 X147.688 Y65.847 E15.92916
G1 X147.378 Y65.805 E15.93956
G1 X93.617 Y65.804 E17.72766
G1 X93.308 Y65.844 E17.73803
G1 X93.058 Y65.947 E17.74702
G1 X92.827 Y66.127 E17.75676
G1 X92.648 Y66.357 E17.76645
G1 X92.547 Y66.608 E17.77545
G1 X92.504 Y66.918 E17.78586
G1 X92.501 Y141.579 E20.2691
G1 X87.436 Y154.335 E20.72558
G1 X87.056 Y155.417 E20.76373
G1 X86.733 Y156.738 E20.80896
G1 X86.544 Y158.154 E20.85647
G1 X86.504 Y159.192 E20.89102
G1 X86.504 Y161.314 E20.9616
G1 X86.519 Y161.582 E20.97053
G1 X86.641 Y162.067 E20.98716
G1 X86.879 Y162.517 E21.00409
G1 X87.21 Y162.897 E21.02085
G1 X87.643 Y163.192 E21.03828
G1 X92.405 Y165.681 E21.21699
G1 X92.496 Y165.811 E21.22227
G1 X92.504 Y169.117 E21.33223
G1 X92.579 Y169.192 E21.33576
G0 F6000 X93.206 Y168.692
G0 X93.264 Y168.432
;TYPE:SKIN
G1 F900 X93.257 Y165.815 E21.4228
G1 X93.196 Y165.502 E21.43341
G1 X93.076 Y165.285 E21.44165
G1 X92.829 Y165.045 E21.45311
G1 X88.036 Y162.54 E21.63298
G1 X87.718 Y162.321 E21.64583
G1 X87.51 Y162.085 E21.65629
G1 X87.353 Y161.792 E21.66735
G1 X87.264 Y161.428 E21.67981
G1 X87.265 Y159.212 E21.75351
G1 X87.3 Y158.234 E21.78606
G1 X87.485 Y156.862 E21.83211
G1 X87.78 Y155.649 E21.87363
G1 X88.074 Y154.813 E21.9031
G1 X88.067 Y154.802 E21.90354
G1 X93.257 Y141.715 E22.37179
G1 X93.264 Y66.98 E24.85749
G1 X93.322 Y66.737 E24.8658
G1 X93.442 Y66.615 E24.87149
G1 X93.67 Y66.564 E24.87926
G1 X147.312 Y66.564 E26.6634
G1 X147.556 Y66.622 E26.67174
G1 X147.68 Y66.742 E26.67748
G1 X147.728 Y66.969 E26.6852
G1 X147.728 Y168.428 E30.05974
G1 X93.264 Y168.432 E31.87122
G0 F6000 X93.463 Y168.134
G1 F900 X93.561 Y168.231 E31.8758
G0 F6000 X94.127 Y168.231
G1 F900 X93.461 Y167.566 E31.90711
G0 F6000 X93.458 Y166.997
G1 F900 X94.692 Y168.231 E31.96515
G0 F6000 X95.258 Y168.231
G1 F900 X93.456 Y166.43 E32.04989
G0 F6000 X93.454 Y165.862
G1 F900 X95.824 Y168.231 E32.16134
G0 F6000 X96.389 Y168.231
G1 F900 X87.464 Y159.306 E32.58115
G0 F6000 X87.481 Y158.757
G1 F900 X96.955 Y168.231 E33.02677
G0 F6000 X97.521 Y168.231
G1 F900 X87.504 Y158.214 E33.49794
G0 F6000 X87.572 Y157.717
G1 F900 X98.086 Y168.231 E33.99249
G0 F6000 X98.652 Y168.231
G1 F900 X87.639 Y157.218 E34.51051
G0 F6000 X87.722 Y156.735
G1 F900 X99.218 Y168.231 E35.05124
G0 F6000 X99.783 Y168.231
G1 F900 X87.832 Y156.28 E35.61338
G0 F6000 X87.942 Y155.824
G1 F900 X100.349 Y168.231 E36.19697
G0 F6000 X100.915 Y168.231
G1 F900 X88.08 Y155.397 E36.80066
G0 F6000 X88.227 Y154.978
G1 F900 X101.48 Y168.231 E37.42405
G0 F6000 X102.046 Y168.231
G1 F900 X88.376 Y154.562 E38.06702
G0 F6000 X88.538 Y154.157
G1 F900 X102.611 Y168.231 E38.72899
G0 F6000 X103.177 Y168.231
G1 F900 X88.698 Y153.752 E39.41004
G0 F6000 X88.859 Y153.347
G1 F900 X103.742 Y168.231 E40.11011
G0 F6000 X104.308 Y168.231
G1 F900 X89.019 Y152.942 E40.82926
G0 F6000 X89.18 Y152.536
G1 F900 X104.874 Y168.231 E41.56748
G0 F6000 X105.44 Y168.231
G1 F900 X89.341 Y152.132 E42.32473
G0 F6000 X89.501 Y151.727
G1 F900 X106.005 Y168.231 E43.10103
G0 F6000 X106.571 Y168.231
G1 F900 X89.662 Y151.322 E43.89637
G0 F6000 X89.822 Y150.916
G1 F900 X107.137 Y168.231 E44.71082
G0 F6000 X107.702 Y168.231
G1 F900 X89.984 Y150.512 E45.54424
G0 F6000 X90.144 Y150.107
G1 F900 X108.268 Y168.231 E46.39674
G0 F6000 X108.834 Y168.231
G1 F900 X90.305 Y149.702 E47.26829
G0 F6000 X90.465 Y149.296
G1 F900 X109.399 Y168.231 E48.15891
G0 F6000 X109.965 Y168.231
G1 F900 X90.626 Y148.891 E49.06858
G0 F6000 X90.787 Y148.487
G1 F900 X110.531 Y168.231 E49.99728
G0 F6000 X111.096 Y168.231
G1 F900 X90.947 Y148.082 E50.94502
G0 F6000 X91.108 Y147.676
G1 F900 X111.661 Y168.23 E51.9118
G0 F6000 X112.227 Y168.23
G1 F900 X91.268 Y147.271 E52.89764
G0 F6000 X91.429 Y146.866
G1 F900 X112.793 Y168.23 E53.90254
G0 F6000 X113.358 Y168.23
G1 F900 X91.59 Y146.462 E54.92644
G0 F6000 X91.751 Y146.056
G1 F900 X113.924 Y168.23 E55.96942
G0 F6000 X114.49 Y168.23
G1 F900 X91.911 Y145.651 E57.03146
G0 F6000 X92.072 Y145.246
G1 F900 X115.055 Y168.23 E58.11254
G0 F6000 X115.621 Y168.23
G1 F900 X92.232 Y144.841 E59.21268
G0 F6000 X92.393 Y144.436
G1 F900 X116.187 Y168.23 E60.33188
G0 F6000 X116.753 Y168.23
G1 F900 X92.554 Y144.031 E61.47013
G0 F6000 X92.714 Y143.626
G1 F900 X117.318 Y168.23 E62.62742
G0 F6000 X117.884 Y168.23
G1 F900 X92.875 Y143.221 E63.80377
G0 F6000 X93.035 Y142.816
G1 F900 X118.45 Y168.23 E64.99919
G0 F6000 X119.015 Y168.23
G1 F900 X93.197 Y142.411 E66.21361
G0 F6000 X93.357 Y142.006
G1 F900 X119.581 Y168.23 E67.44711
G0 F6000 X120.147 Y168.23
G1 F900 X93.459 Y141.542 E68.70243
G0 F6000 X93.459 Y140.977
G1 F900 X120.712 Y168.229 E69.9843
G0 F6000 X121.277 Y168.229
G1 F900 X93.459 Y140.411 E71.29278
G0 F6000 X93.459 Y139.845
G1 F900 X121.843 Y168.229 E72.62787
G0 F6000 X122.409 Y168.229
G1 F900 X93.459 Y139.28 E73.98957
G0 F6000 X93.459 Y138.714
G1 F900 X122.974 Y168.229 E75.37787
G0 F6000 X123.54 Y168.229
G1 F900 X93.459 Y138.148 E76.79278
G0 F6000 X93.459 Y137.582
G1 F900 X124.106 Y168.229 E78.23432
G0 F6000 X124.671 Y168.229
G1 F900 X93.459 Y137.017 E79.70244
G0 F6000 X93.459 Y136.451
G1 F900 X125.237 Y168.229 E81.19718
G0 F6000 X125.803 Y168.229
G1 F900 X93.459 Y135.885 E82.71854
G0 F6000 X93.459 Y135.32
G1 F900 X126.368 Y168.229 E84.26648
G0 F6000 X126.934 Y168.229
G1 F900 X93.459 Y134.754 E85.84104
G0 F6000 X93.459 Y134.188
G1 F900 X127.5 Y168.229 E87.44223
G0 F6000 X128.066 Y168.229
G1 F900 X93.459 Y133.623 E89.07001
G0 F6000 X93.459 Y133.057
G1 F900 X128.631 Y168.229 E90.72439
G0 F6000 X129.197 Y168.229
G1 F900 X93.459 Y132.491 E92.4054
G0 F6000 X93.459 Y131.926
G1 F900 X129.762 Y168.228 E94.11296
G0 F6000 X130.328 Y168.228
G1 F900 X93.459 Y131.36 E95.84714
G0 F6000 X93.46 Y130.795
G1 F900 X130.893 Y168.228 E97.60787
G0 F6000 X131.459 Y168.228
G1 F900 X93.46 Y130.229 E99.39523
G0 F6000 X93.46 Y129.664
G1 F900 X132.025 Y168.228 E101.20919
G0 F6000 X132.59 Y168.228
G1 F900 X93.46 Y129.098 E103.04974
G0 F6000 X93.46 Y128.532
G1 F900 X133.156 Y168.228 E104.91692
G0 F6000 X133.722 Y168.228
G1 F900 X93.46 Y127.967 E106.8107
G0 F6000 X93.46 Y127.401
G1 F900 X134.287 Y168.228 E108.73107
G0 F6000 X134.853 Y168.228
G1 F900 X93.46 Y126.835 E110.67807
G0 F6000 X93.46 Y126.269
G1 F900 X135.419 Y168.228 E112.6517
G0 F6000 X135.984 Y168.228
G1 F900 X93.46 Y125.704 E114.65189
G0 F6000 X93.46 Y125.138
G1 F900 X136.55 Y168.228 E116.67872
G0 F6000 X137.116 Y168.228
G1 F900 X93.46 Y124.572 E118.73216
G0 F6000 X93.46 Y124.007
G1 F900 X137.681 Y168.228 E120.81218
G0 F6000 X138.247 Y168.228
G1 F900 X93.46 Y123.441 E122.91882
G0 F6000 X93.46 Y122.875
G1 F900 X138.812 Y168.228 E125.05207
G0 F6000 X139.378 Y168.228
G1 F900 X93.46 Y122.31 E127.21191
G0 F6000 X93.46 Y121.744
G1 F900 X139.944 Y168.228 E129.39837
G0 F6000 X140.509 Y168.228
G1 F900 X93.46 Y121.178 E131.61144
G0 F6000 X93.46 Y120.613
G1 F900 X141.075 Y168.228 E133.8511
G0 F6000 X141.641 Y168.228
G1 F900 X93.46 Y120.048 E136.11736
G0 F6000 X93.46 Y119.482
G1 F900 X142.206 Y168.228 E138.41023
G0 F6000 X142.772 Y168.228
G1 F900 X93.46 Y118.916 E140.72971
G0 F6000 X93.46 Y118.351
G1 F900 X143.338 Y168.228 E143.0758
G0 F6000 X143.903 Y168.228
G1 F900 X93.46 Y117.785 E145.44848
G0 F6000 X93.46 Y117.219
G1 F900 X144.469 Y168.228 E147.84779
G0 F6000 X145.035 Y168.228
G1 F900 X93.46 Y116.654 E150.27369
G0 F6000 X93.46 Y116.088
G1 F900 X145.6 Y168.228 E152.7262
G0 F6000 X146.166 Y168.228
G1 F900 X93.46 Y115.522 E155.20533
G0 F6000 X93.46 Y114.956
G1 F900 X146.732 Y168.228 E157.71108
G0 F6000 X147.297 Y168.228
G1 F900 X93.46 Y114.391 E160.24341
G0 F6000 X93.46 Y113.825
G1 F900 X147.528 Y167.893 E162.7866
G0 F6000 X147.528 Y167.327
G1 F900 X93.46 Y113.259 E165.32979
G0 F6000 X93.46 Y112.694
G1 F900 X147.528 Y166.761 E167.87296
G0 F6000 X147.528 Y166.196
G1 F900 X93.46 Y112.128 E170.41616
G0 F6000 X93.46 Y111.562
G1 F900 X147.528 Y165.63 E172.95935
G0 F6000 X147.528 Y165.064
G1 F900 X93.46 Y110.997 E175.50252
G0 F6000 X93.46 Y110.431
G1 F900 X147.528 Y164.498 E178.04569
G0 F6000 X147.528 Y163.933
G1 F900 X93.46 Y109.865 E180.58888
G0 F6000 X93.461 Y109.3
G1 F900 X147.528 Y163.367 E183.13203
G0 F6000 X147.528 Y162.801
G1 F900 X93.461 Y108.735 E185.67515
G0 F6000 X93.461 Y108.169
G1 F900 X147.528 Y162.236 E188.21829
G0 F6000 X147.528 Y161.67
G1 F900 X93.461 Y107.603 E190.76144
G0 F6000 X93.461 Y107.038
G1 F900 X147.528 Y161.104 E193.30456
G0 F6000 X147.528 Y160.539
G1 F900 X93.461 Y106.472 E195.84771
G0 F6000 X93.461 Y105.906
G1 F900 X147.528 Y159.973 E198.39085
G0 F6000 X147.528 Y159.407
G1 F900 X93.461 Y105.341 E200.93398
G0 F6000 X93.461 Y104.775
G1 F900 X147.528 Y158.842 E203.47712
G0 F6000 X147.528 Y158.276
G1 F900 X93.461 Y104.209 E206.02027
G0 F6000 X93.461 Y103.643
G1 F900 X147.528 Y157.71 E208.56341
G0 F6000 X147.528 Y157.145
G1 F900 X93.461 Y103.078 E211.10656
G0 F6000 X93.461 Y102.512
G1 F900 X147.528 Y156.579 E213.64971
G0 F6000 X147.528 Y156.013
G1 F900 X93.461 Y101.946 E216.19285
G0 F6000 X93.461 Y101.381
G1 F900 X147.528 Y155.448 E218.736
G0 F6000 X147.528 Y154.882
G1 F900 X93.461 Y100.815 E221.27914
G0 F6000 X93.461 Y100.249
G1 F900 X147.528 Y154.316 E223.82229
G0 F6000 X147.528 Y153.75
G1 F900 X93.461 Y99.684 E226.36541
G0 F6000 X93.461 Y99.118
G1 F900 X147.528 Y153.185 E228.90856
G0 F6000 X147.528 Y152.619
G1 F900 X93.462 Y98.553 E231.45166
G0 F6000 X93.462 Y97.987
G1 F900 X147.528 Y152.053 E233.99476
G0 F6000 X147.528 Y151.488
G1 F900 X93.462 Y97.422 E236.53785
G0 F6000 X93.462 Y96.856
G1 F900 X147.528 Y150.922 E239.08095
G0 F6000 X147.528 Y150.356
G1 F900 X93.462 Y96.29 E241.62405
G0 F6000 X93.462 Y95.725
G1 F900 X147.528 Y149.791 E244.16715
G0 F6000 X147.528 Y149.225
G1 F900 X93.462 Y95.159 E246.71025
G0 F6000 X93.462 Y94.593
G1 F900 X147.528 Y148.659 E249.25335
G0 F6000 X147.528 Y148.094
G1 F900 X93.462 Y94.028 E251.79645
G0 F6000 X93.462 Y93.462
G1 F900 X147.528 Y147.528 E254.33955
G0 F6000 X147.528 Y146.962
G1 F900 X93.462 Y92.896 E256.88265
G0 F6000 X93.462 Y92.33
G1 F900 X147.528 Y146.397 E259.42577
G0 F6000 X147.528 Y145.831
G1 F900 X93.462 Y91.765 E261.96887
G0 F6000 X93.462 Y91.199
G1 F900 X147.528 Y145.265 E264.51197
G0 F6000 X147.528 Y144.7
G1 F900 X93.462 Y90.633 E267.05509
G0 F6000 X93.462 Y90.068
G1 F900 X147.528 Y144.134 E269.59819
G0 F6000 X147.528 Y143.568
G1 F900 X93.462 Y89.502 E272.14129
G0 F6000 X93.462 Y88.936
G1 F900 X147.528 Y143.002 E274.68439
G0 F6000 X147.528 Y142.437
G1 F900 X93.462 Y88.371 E277.22748
G0 F6000 X93.463 Y87.806
G1 F900 X147.528 Y141.871 E279.77054
G0 F6000 X147.528 Y141.305
G1 F900 X93.463 Y87.24 E282.31359
G0 F6000 X93.463 Y86.674
G1 F900 X147.528 Y140.74 E284.85666
G0 F6000 X147.528 Y140.174
G1 F900 X93.463 Y86.109 E287.39971
G0 F6000 X93.463 Y85.543
G1 F900 X147.528 Y139.608 E289.94277
G0 F6000 X147.528 Y139.043
G1 F900 X93.463 Y84.977 E292.48584
G0 F6000 X93.463 Y84.412
G1 F900 X147.528 Y138.477 E295.02889
G0 F6000 X147.528 Y137.911
G1 F900 X93.463 Y83.846 E297.57195
G0 F6000 X93.463 Y83.28
G1 F900 X147.528 Y137.346 E300.11502
G0 F6000 X147.528 Y136.78
G1 F900 X93.463 Y82.715 E302.65807
G0 F6000 X93.463 Y82.149
G1 F900 X147.528 Y136.214 E305.20112
G0 F6000 X147.528 Y135.649
G1 F900 X93.463 Y81.583 E307.7442
G0 F6000 X93.463 Y81.017
G1 F900 X147.528 Y135.083 E310.28728
G0 F6000 X147.528 Y134.517
G1 F900 X93.463 Y80.452 E312.83033
G0 F6000 X93.463 Y79.886
G1 F900 X147.528 Y133.951 E315.37338
G0 F6000 X147.528 Y133.386
G1 F900 X93.463 Y79.32 E317.91645
G0 F6000 X93.463 Y78.755
G1 F900 X147.528 Y132.82 E320.45951
G0 F6000 X147.528 Y132.254
G1 F900 X93.463 Y78.189 E323.00256
G0 F6000 X93.463 Y77.624
G1 F900 X147.528 Y131.689 E325.54561
G0 F6000 X147.528 Y131.123
G1 F900 X93.463 Y77.058 E328.08866
G0 F6000 X93.463 Y76.493
G1 F900 X147.528 Y130.557 E330.63169
G0 F6000 X147.528 Y129.992
G1 F900 X93.463 Y75.927 E333.17474
G0 F6000 X93.463 Y75.361
G1 F900 X147.528 Y129.426 E335.71779
G0 F6000 X147.528 Y128.86
G1 F900 X93.463 Y74.796 E338.26082
G0 F6000 X93.463 Y74.23
G1 F900 X147.528 Y128.295 E340.80387
G0 F6000 X147.528 Y127.729
G1 F900 X93.463 Y73.664 E343.34693
G0 F6000 X93.463 Y73.099
G1 F900 X147.528 Y127.163 E345.88995
G0 F6000 X147.528 Y126.598
G1 F900 X93.463 Y72.533 E348.43301
G0 F6000 X93.463 Y71.967
G1 F900 X147.528 Y126.032 E350.97606
G0 F6000 X147.528 Y125.466
G1 F900 X93.463 Y71.402 E353.51909
G0 F6000 X93.463 Y70.836
G1 F900 X147.528 Y124.901 E356.06214
G0 F6000 X147.528 Y124.335
G1 F900 X93.463 Y70.27 E358.60519
G0 F6000 X93.463 Y69.704
G1 F900 X147.528 Y123.769 E361.14824
G0 F6000 X147.528 Y123.203
G1 F900 X93.463 Y69.139 E363.69127
G0 F6000 X93.463 Y68.573
G1 F900 X147.528 Y122.638 E366.23432
G0 F6000 X147.528 Y122.072
G1 F900 X93.463 Y68.007 E368.77737
G0 F6000 X93.463 Y67.442
G1 F900 X147.528 Y121.506 E371.3204
G0 F6000 X147.528 Y120.941
G1 F900 X93.488 Y66.901 E373.86228
G0 F6000 X93.917 Y66.764
G1 F900 X147.528 Y120.375 E376.38398
G0 F6000 X147.528 Y119.809
G1 F900 X94.483 Y66.764 E378.87905
G0 F6000 X95.049 Y66.764
G1 F900 X147.528 Y119.244 E381.34752
G0 F6000 X147.528 Y118.678
G1 F900 X95.614 Y66.764 E383.7894
G0 F6000 X96.18 Y66.764
G1 F900 X147.528 Y118.112 E386.20465
G0 F6000 X147.528 Y117.547
G1 F900 X96.746 Y66.764 E388.59331
G0 F6000 X97.311 Y66.764
G1 F900 X147.528 Y116.981 E390.95536
G0 F6000 X147.528 Y116.415
G1 F900 X97.877 Y66.764 E393.29079
G0 F6000 X98.443 Y66.764
G1 F900 X147.528 Y115.85 E395.59962
G0 F6000 X147.528 Y115.284
G1 F900 X99.008 Y66.764 E397.88185
G0 F6000 X99.574 Y66.764
G1 F900 X147.528 Y114.718 E400.13746
G0 F6000 X147.528 Y114.152
G1 F900 X100.14 Y66.764 E402.36645
